; generated by PrusaSlicer 2.2.0+linux-x64 on 2021-05-04 at 20:13:00 UTC

; 

; external perimeters extrusion width = 0.45mm
; perimeters extrusion width = 0.45mm
; infill extrusion width = 0.45mm
; solid infill extrusion width = 0.45mm
; top infill extrusion width = 0.40mm
; support material extrusion width = 0.35mm
; first layer extrusion width = 0.42mm

M73 P0 R104
M73 Q0 S105
M201 X1000 Y1000 Z200 E5000 ; sets maximum accelerations, mm/sec^2
M203 X200 Y200 Z12 E120 ; sets maximum feedrates, mm/sec
M204 P1250 R1250 T1250 ; sets acceleration (P, T) and retract acceleration (R), mm/sec^2
M205 X8.00 Y8.00 Z0.40 E4.50 ; sets the jerk limits, mm/sec
M205 S0 T0 ; sets the minimum extruding and travel feed rate, mm/sec
M107
M862.3 P "MK3S" ; printer model check
M862.1 P0.4 ; nozzle diameter check
M115 U3.9.3 ; tell printer latest fw version
G90 ; use absolute coordinates
M83 ; extruder relative mode
M104 S215 ; set extruder temp
M140 S60 ; set bed temp
M190 S60 ; wait for bed temp
M109 S215 ; wait for extruder temp
G28 W ; home all without mesh bed level
G80 ; mesh bed leveling
G1 Y-3.0 F1000.0 ; go outside print area
G92 E0.0
G1 X60.0 E9.0 F1000.0 ; intro line
M73 Q0 S105
M73 P0 R104
G1 X100.0 E12.5 F1000.0 ; intro line
G92 E0.0
M221 S95

; Don't change E values below. Excessive value can damage the printer.
M907 E430 ; set extruder motor current
G21 ; set units to millimeters
G90 ; use absolute coordinates
M83 ; use relative distances for extrusion
M900 K0.05 ; Filament gcode LA 1.5
M900 K30 ; Filament gcode LA 1.0
;BEFORE_LAYER_CHANGE
G92 E0.0
;0.2


G1 E-0.80000 F2100.00000
G1 Z0.400 F10800.000
;AFTER_LAYER_CHANGE
;0.2
G1 X76.394 Y54.298
G1 Z0.200
G1 E0.80000 F2100.00000
M204 S1000
G1 F1200.000
G1 X78.392 Y53.702 E0.06539
G1 X78.945 Y53.624 E0.01752
G1 X171.004 Y53.623 E2.88643
G1 X171.540 Y53.685 E0.01692
G1 X173.272 Y54.154 E0.05626
G1 X173.749 Y54.380 E0.01657
G1 X174.165 Y54.706 E0.01657
G1 X175.355 Y55.899 E0.05284
G1 X175.702 Y56.394 E0.01894
G1 X175.893 Y56.882 E0.01645
G1 X176.375 Y58.900 E0.06504
G1 X176.377 Y151.027 E2.88858
G1 X176.314 Y151.544 E0.01633
G1 X175.851 Y153.257 E0.05566
G1 X175.638 Y153.720 E0.01597
G1 X175.334 Y154.124 E0.01585
G1 X174.104 Y155.353 E0.05451
G1 X173.603 Y155.704 E0.01917
G1 X171.601 Y156.300 E0.06551
G1 X171.028 Y156.377 E0.01811
G1 X78.973 Y156.377 E2.88631
G1 X78.456 Y156.314 E0.01633
G1 X76.743 Y155.851 E0.05566
G1 X76.280 Y155.638 E0.01597
G1 X75.876 Y155.334 E0.01585
G1 X74.647 Y154.104 E0.05451
G1 X74.296 Y153.603 E0.01917
G1 X73.700 Y151.601 E0.06551
G1 X73.623 Y151.028 E0.01811
G1 X73.623 Y58.973 E2.88631
G1 X73.686 Y58.456 E0.01633
G1 X74.149 Y56.743 E0.05566
G1 X74.362 Y56.280 E0.01597
G1 X74.666 Y55.876 E0.01585
G1 X75.896 Y54.647 E0.05451
G1 X76.344 Y54.333 E0.01718
; printing object bottom-Cube.stl id:0 copy 0
G1 F8640.000
G1 X78.392 Y53.702 E-0.49472
G1 X78.945 Y53.624 E-0.12899
G1 X79.535 Y53.624 E-0.13629
G1 E-0.04000 F2100.00000
G1 Z0.600 F10800.000
G1 X81.259 Y64.848
G1 Z0.200
G1 E0.80000 F2100.00000
G1 F1200.000
G1 X81.259 Y61.392 E0.10837
G1 X81.774 Y60.877 E0.02285
G1 X82.013 Y60.813 E0.00775
G1 X82.013 Y65.187 E0.13717
G1 X82.767 Y65.389 E0.02448
G1 X82.767 Y60.611 E0.14984
G1 X83.000 Y60.548 E0.00756
G1 X83.521 Y60.688 E0.01692
G1 X83.521 Y65.312 E0.14499
G1 X84.226 Y65.123 E0.02287
G1 X84.275 Y65.074 E0.00219
G1 X84.275 Y60.926 E0.13005
G1 X85.030 Y61.680 E0.03344
G1 X85.030 Y64.560 E0.09028
G1 F8640.000
G1 X85.030 Y61.680 E-0.66488
G1 X84.738 Y61.389 E-0.09512
G1 E-0.04000 F2100.00000
G1 Z0.600 F10800.000
G1 X164.970 Y64.560
G1 Z0.200
G1 E0.80000 F2100.00000
G1 F1200.000
G1 X164.970 Y61.680 E0.09028
G1 X165.725 Y60.926 E0.03344
G1 X165.725 Y65.074 E0.13005
G1 X165.774 Y65.123 E0.00219
G1 X166.479 Y65.312 E0.02287
G1 X166.479 Y60.688 E0.14499
G1 X167.000 Y60.548 E0.01692
G1 X167.233 Y60.611 E0.00756
G1 X167.233 Y65.389 E0.14984
G1 X167.987 Y65.187 E0.02448
G1 X167.987 Y60.813 E0.13717
G1 X168.226 Y60.877 E0.00775
G1 X168.741 Y61.392 E0.02285
G1 X168.741 Y64.848 E0.10837
G1 F8640.000
G1 X168.741 Y61.557 E-0.76000
G1 E-0.04000 F2100.00000
G1 Z0.600 F10800.000
G1 X168.741 Y148.848
G1 Z0.200
G1 E0.80000 F2100.00000
G1 F1200.000
G1 X168.741 Y145.392 E0.10837
G1 X168.226 Y144.877 E0.02285
G1 X167.987 Y144.813 E0.00775
G1 X167.987 Y149.187 E0.13717
G1 X167.233 Y149.389 E0.02448
G1 X167.233 Y144.611 E0.14984
G1 X167.000 Y144.548 E0.00756
G1 X166.479 Y144.688 E0.01692
G1 X166.479 Y149.312 E0.14499
G1 X165.774 Y149.123 E0.02287
G1 X165.725 Y149.074 E0.00219
G1 X165.725 Y144.926 E0.13005
G1 X164.970 Y145.680 E0.03344
G1 X164.970 Y148.560 E0.09028
G1 F8640.000
G1 X164.970 Y145.680 E-0.66487
G1 X165.262 Y145.389 E-0.09513
G1 E-0.04000 F2100.00000
G1 Z0.600 F10800.000
G1 X85.030 Y148.560
G1 Z0.200
G1 E0.80000 F2100.00000
G1 F1200.000
G1 X85.030 Y145.680 E0.09028
G1 X84.275 Y144.926 E0.03344
G1 X84.275 Y149.074 E0.13005
G1 X84.226 Y149.123 E0.00219
G1 X83.521 Y149.312 E0.02287
G1 X83.521 Y144.688 E0.14500
G1 X83.000 Y144.548 E0.01692
G1 X82.767 Y144.611 E0.00756
G1 X82.767 Y149.389 E0.14984
G1 X82.013 Y149.187 E0.02448
G1 X82.013 Y144.813 E0.13717
G1 X81.774 Y144.877 E0.00775
G1 X81.259 Y145.392 E0.02285
G1 X81.259 Y148.848 E0.10837
G1 F8640.000
G1 X81.259 Y145.557 E-0.76000
G1 E-0.04000 F2100.00000
G1 Z0.600 F10800.000
G1 X163.305 Y147.000
G1 Z0.200
G1 E0.80000 F2100.00000
G1 F1200.000
G1 X163.800 Y145.153 E0.05997
G1 X165.153 Y143.800 E0.05997
G1 X167.000 Y143.305 E0.05997
G1 X168.847 Y143.800 E0.05997
G1 X170.200 Y145.153 E0.05997
G1 X170.695 Y147.000 E0.05997
G1 X170.200 Y148.847 E0.05997
G1 X168.847 Y150.200 E0.05997
G1 X167.000 Y150.695 E0.05997
G1 X165.153 Y150.200 E0.05997
G1 X163.800 Y148.847 E0.05997
G1 X163.321 Y147.058 E0.05809
G1 X163.696 Y147.000 F10800.000
G1 F1200.000
G1 X164.138 Y145.348 E0.05363
G1 X165.348 Y144.138 E0.05363
G1 X167.000 Y143.696 E0.05363
G1 X168.652 Y144.138 E0.05363
G1 X169.862 Y145.348 E0.05363
G1 X170.304 Y147.000 E0.05363
G1 X169.862 Y148.652 E0.05363
G1 X168.652 Y149.862 E0.05363
G1 X167.000 Y150.304 E0.05363
G1 X165.348 Y149.862 E0.05363
G1 X164.138 Y148.652 E0.05363
G1 X163.711 Y147.058 E0.05175
G1 X163.349 Y146.800 F10800.000
G1 F8640.000
G1 X164.138 Y145.348 E-0.40702
G1 X165.219 Y144.267 E-0.35298
G1 E-0.04000 F2100.00000
G1 Z0.600 F10800.000
G1 X167.000 Y66.695
G1 Z0.200
G1 E0.80000 F2100.00000
G1 F1200.000
G1 X165.153 Y66.200 E0.05997
G1 X163.800 Y64.847 E0.05997
G1 X163.305 Y63.000 E0.05997
G1 X163.800 Y61.153 E0.05997
G1 X165.153 Y59.800 E0.05997
G1 X167.000 Y59.305 E0.05997
G1 X168.847 Y59.800 E0.05997
G1 X170.200 Y61.153 E0.05997
G1 X170.695 Y63.000 E0.05997
G1 X170.200 Y64.847 E0.05997
G1 X168.847 Y66.200 E0.05997
G1 X167.058 Y66.679 E0.05809
G1 X167.000 Y66.304 F10800.000
G1 F1200.000
G1 X165.348 Y65.862 E0.05363
G1 X164.138 Y64.652 E0.05363
G1 X163.696 Y63.000 E0.05363
G1 X164.138 Y61.348 E0.05363
G1 X165.348 Y60.138 E0.05363
G1 X167.000 Y59.696 E0.05363
G1 X168.652 Y60.138 E0.05363
G1 X169.862 Y61.348 E0.05363
G1 X170.304 Y63.000 E0.05363
G1 X169.862 Y64.652 E0.05363
G1 X168.652 Y65.862 E0.05363
G1 X167.058 Y66.289 E0.05175
G1 X166.800 Y66.651 F10800.000
G1 F8640.000
G1 X165.348 Y65.862 E-0.40702
G1 X164.267 Y64.781 E-0.35298
G1 E-0.04000 F2100.00000
G1 Z0.600 F10800.000
G1 X86.695 Y63.000
G1 Z0.200
G1 E0.80000 F2100.00000
G1 F1200.000
G1 X86.200 Y64.847 E0.05997
G1 X84.847 Y66.200 E0.05997
G1 X83.000 Y66.695 E0.05997
G1 X81.153 Y66.200 E0.05997
G1 X79.800 Y64.847 E0.05997
G1 X79.305 Y63.000 E0.05997
G1 X79.800 Y61.153 E0.05997
G1 X81.153 Y59.800 E0.05997
G1 X83.000 Y59.305 E0.05997
G1 X84.847 Y59.800 E0.05997
G1 X86.200 Y61.153 E0.05997
G1 X86.679 Y62.942 E0.05809
G1 X86.304 Y63.000 F10800.000
G1 F1200.000
G1 X85.862 Y64.652 E0.05363
G1 X84.652 Y65.862 E0.05363
G1 X83.000 Y66.304 E0.05363
G1 X81.348 Y65.862 E0.05363
G1 X80.138 Y64.652 E0.05363
G1 X79.696 Y63.000 E0.05363
G1 X80.138 Y61.348 E0.05363
G1 X81.348 Y60.138 E0.05363
G1 X83.000 Y59.696 E0.05363
G1 X84.652 Y60.138 E0.05363
G1 X85.862 Y61.348 E0.05363
G1 X86.289 Y62.942 E0.05175
G1 X86.651 Y63.200 F10800.000
G1 F8640.000
G1 X85.862 Y64.652 E-0.40702
G1 X84.781 Y65.733 E-0.35298
G1 E-0.04000 F2100.00000
G1 Z0.600 F10800.000
G1 X83.000 Y143.305
G1 Z0.200
G1 E0.80000 F2100.00000
G1 F1200.000
G1 X84.847 Y143.800 E0.05997
G1 X86.200 Y145.153 E0.05997
G1 X86.695 Y147.000 E0.05997
G1 X86.200 Y148.847 E0.05997
G1 X84.847 Y150.200 E0.05997
G1 X83.000 Y150.695 E0.05997
G1 X81.153 Y150.200 E0.05997
G1 X79.800 Y148.847 E0.05997
G1 X79.305 Y147.000 E0.05997
G1 X79.800 Y145.153 E0.05997
G1 X81.153 Y143.800 E0.05997
G1 X82.942 Y143.321 E0.05809
G1 X83.000 Y143.696 F10800.000
G1 F1200.000
G1 X84.652 Y144.138 E0.05363
G1 X85.862 Y145.348 E0.05363
G1 X86.304 Y147.000 E0.05363
G1 X85.862 Y148.652 E0.05363
G1 X84.652 Y149.862 E0.05363
G1 X83.000 Y150.304 E0.05363
G1 X81.348 Y149.862 E0.05363
G1 X80.138 Y148.652 E0.05363
G1 X79.696 Y147.000 E0.05363
G1 X80.138 Y145.348 E0.05363
G1 X81.348 Y144.138 E0.05363
G1 X82.942 Y143.711 E0.05175
G1 X83.200 Y143.349 F10800.000
G1 F8640.000
G1 X84.652 Y144.138 E-0.40702
G1 X85.733 Y145.219 E-0.35298
G1 E-0.04000 F2100.00000
G1 Z0.600 F10800.000
G1 X77.108 Y152.093
G1 Z0.200
G1 E0.80000 F2100.00000
G1 F1200.000
G1 X76.787 Y150.896 E0.03883
G1 X76.787 Y59.104 E2.87810
G1 X77.108 Y57.907 E0.03883
G1 X77.907 Y57.108 E0.03547
G1 X79.104 Y56.787 E0.03883
G1 X170.896 Y56.787 E2.87810
G1 X172.072 Y57.102 E0.03816
G1 X172.893 Y57.910 E0.03612
G1 X173.213 Y59.104 E0.03875
G1 X173.213 Y150.896 E2.87810
M73 Q1 S104
G1 X172.892 Y152.093 E0.03883
G1 X172.093 Y152.892 E0.03547
G1 X170.896 Y153.213 E0.03883
G1 X79.104 Y153.213 E2.87810
M73 P1 R103
G1 X77.907 Y152.892 E0.03883
G1 X77.150 Y152.135 E0.03358
G1 X76.770 Y152.288 F10800.000
G1 F1200.000
G1 X76.410 Y150.946 E0.04355
G1 X76.410 Y59.054 E2.88121
G1 X76.770 Y57.712 E0.04355
G1 X77.712 Y56.770 E0.04180
G1 X79.054 Y56.410 E0.04355
G1 X170.946 Y56.410 E2.88121
G1 X172.265 Y56.764 E0.04283
G1 X173.231 Y57.713 E0.04246
G1 X173.590 Y59.054 E0.04352
G1 X173.590 Y150.946 E2.88121
G1 X173.230 Y152.288 E0.04355
G1 X172.288 Y153.230 E0.04180
G1 X170.946 Y153.590 E0.04355
G1 X79.054 Y153.590 E2.88121
G1 X77.712 Y153.230 E0.04355
G1 X76.812 Y152.330 E0.03992
G1 X76.969 Y151.941 F10800.000
G1 X77.121 Y151.705
G1 F1200.000
G1 X78.055 Y152.639 E0.04149
G1 X78.785 Y152.835 E0.02374
G1 X77.165 Y151.215 E0.07195
G1 X77.070 Y150.859 E0.01158
G1 X77.070 Y150.586 E0.00860
G1 X79.414 Y152.930 E0.10418
G1 X79.949 Y152.930 E0.01679
G1 X77.070 Y150.051 E0.12792
G1 X77.070 Y149.517 E0.01679
G1 X80.483 Y152.930 E0.15167
G1 X81.018 Y152.930 E0.01679
G1 X77.070 Y148.982 E0.17541
G1 X77.070 Y148.448 E0.01679
G1 X81.552 Y152.930 E0.19915
G1 X82.086 Y152.930 E0.01679
G1 X77.070 Y147.914 E0.22290
G1 X77.070 Y147.379 E0.01679
G1 X82.621 Y152.930 E0.24664
G1 X83.155 Y152.930 E0.01679
G1 X77.070 Y146.845 E0.27038
G1 X77.070 Y146.311 E0.01679
G1 X83.859 Y153.100 E0.30167
G1 F8640.000
G1 X81.532 Y150.772 E-0.76000
G1 E-0.04000 F2100.00000
G1 Z0.600 F10800.000
G1 X94.012 Y153.100
G1 Z0.200
G1 E0.80000 F2100.00000
G1 F1200.000
G1 X86.649 Y145.737 E0.32716
G1 X86.845 Y146.467 E0.02374
G1 X93.308 Y152.930 E0.28719
G1 X92.774 Y152.930 E0.01679
G1 X86.957 Y147.114 E0.25845
G1 X86.844 Y147.535 E0.01371
G1 X92.239 Y152.930 E0.23972
G1 X91.705 Y152.930 E0.01679
G1 X86.731 Y147.956 E0.22099
G1 X86.618 Y148.378 E0.01371
G1 X91.171 Y152.930 E0.20227
G1 X90.636 Y152.930 E0.01679
G1 X86.505 Y148.799 E0.18354
G1 X86.453 Y148.994 E0.00632
G1 X86.309 Y149.138 E0.00639
G1 X90.102 Y152.930 E0.16851
G1 X89.568 Y152.930 E0.01679
G1 X86.042 Y149.405 E0.15664
G1 X85.775 Y149.672 E0.01187
G1 X89.033 Y152.930 E0.14476
G1 X88.499 Y152.930 E0.01679
G1 X85.508 Y149.939 E0.13289
G1 X85.241 Y150.206 E0.01187
G1 X87.964 Y152.930 E0.12102
G1 X87.430 Y152.930 E0.01679
G1 X84.962 Y150.462 E0.10967
G1 X84.540 Y150.575 E0.01371
G1 X86.896 Y152.930 E0.10465
G1 X86.361 Y152.930 E0.01679
G1 X84.119 Y150.688 E0.09963
G1 X83.698 Y150.801 E0.01371
G1 X85.827 Y152.930 E0.09462
G1 X85.293 Y152.930 E0.01679
G1 X83.276 Y150.914 E0.08960
G1 X83.000 Y150.988 E0.00898
G1 X82.748 Y150.920 E0.00819
G1 X84.758 Y152.930 E0.08931
G1 X84.224 Y152.930 E0.01679
G1 X81.778 Y150.485 E0.10866
G1 F8640.000
G1 X84.106 Y152.812 E-0.76000
G1 E-0.04000 F2100.00000
G1 Z0.600 F10800.000
G1 X79.515 Y148.222
G1 Z0.200
G1 E0.80000 F2100.00000
G1 F1200.000
G1 X77.070 Y145.776 E0.10866
G1 X77.070 Y145.242 E0.01679
G1 X79.080 Y147.252 E0.08931
G1 X79.012 Y147.000 E0.00819
G1 X79.086 Y146.724 E0.00898
G1 X77.070 Y144.707 E0.08960
G1 X77.070 Y144.173 E0.01679
G1 X79.199 Y146.302 E0.09462
G1 X79.312 Y145.881 E0.01371
G1 X77.070 Y143.639 E0.09963
G1 X77.070 Y143.104 E0.01679
G1 X79.425 Y145.460 E0.10465
G1 X79.538 Y145.038 E0.01371
G1 X77.070 Y142.570 E0.10967
G1 X77.070 Y142.036 E0.01679
G1 X79.794 Y144.759 E0.12102
G1 X80.061 Y144.492 E0.01187
G1 X77.070 Y141.501 E0.13289
G1 X77.070 Y140.967 E0.01679
G1 X80.328 Y144.225 E0.14476
G1 X80.595 Y143.958 E0.01187
G1 X77.070 Y140.432 E0.15664
G1 X77.070 Y139.898 E0.01679
G1 X80.862 Y143.691 E0.16851
G1 X81.006 Y143.547 E0.00639
G1 X81.201 Y143.495 E0.00633
G1 X77.070 Y139.364 E0.18354
G1 X77.070 Y138.829 E0.01679
G1 X81.622 Y143.382 E0.20227
G1 X82.044 Y143.269 E0.01371
G1 X77.070 Y138.295 E0.22099
G1 X77.070 Y137.761 E0.01679
G1 X82.465 Y143.156 E0.23972
G1 X82.886 Y143.043 E0.01371
G1 X77.070 Y137.226 E0.25845
G1 X77.070 Y136.692 E0.01679
G1 X83.533 Y143.155 E0.28719
G1 X84.263 Y143.351 E0.02374
G1 X77.070 Y136.158 E0.31962
G1 X77.070 Y135.623 E0.01679
G1 X94.377 Y152.930 E0.76900
G1 X94.911 Y152.930 E0.01679
G1 X77.070 Y135.089 E0.79274
G1 X77.070 Y134.554 E0.01679
G1 X95.446 Y152.930 E0.81649
G1 X95.980 Y152.930 E0.01679
G1 X77.070 Y134.020 E0.84023
G1 X77.070 Y133.486 E0.01679
G1 X96.514 Y152.930 E0.86397
G1 X97.049 Y152.930 E0.01679
G1 X77.070 Y132.951 E0.88772
G1 X77.070 Y132.417 E0.01679
G1 X97.583 Y152.930 E0.91146
G1 X98.117 Y152.930 E0.01679
G1 X77.070 Y131.883 E0.93520
G1 X77.070 Y131.348 E0.01679
G1 X98.652 Y152.930 E0.95895
G1 X99.186 Y152.930 E0.01679
G1 X77.070 Y130.814 E0.98269
G1 X77.070 Y130.279 E0.01679
G1 X99.721 Y152.930 E1.00644
G1 X100.255 Y152.930 E0.01679
G1 X77.070 Y129.745 E1.03018
G1 X77.070 Y129.211 E0.01679
G1 X100.789 Y152.930 E1.05392
G1 X101.324 Y152.930 E0.01679
G1 X77.070 Y128.676 E1.07767
M73 Q2 S103
G1 X77.070 Y128.142 E0.01679
G1 X101.858 Y152.930 E1.10141
G1 X102.392 Y152.930 E0.01679
G1 X77.070 Y127.608 E1.12515
G1 X77.070 Y127.073 E0.01679
G1 X102.927 Y152.930 E1.14890
M73 P2 R102
G1 X103.461 Y152.930 E0.01679
G1 X77.070 Y126.539 E1.17264
G1 X77.070 Y126.005 E0.01679
G1 X103.995 Y152.930 E1.19638
G1 X104.530 Y152.930 E0.01679
G1 X77.070 Y125.470 E1.22013
G1 X77.070 Y124.936 E0.01679
G1 X105.064 Y152.930 E1.24387
G1 X105.599 Y152.930 E0.01679
G1 X77.070 Y124.401 E1.26762
G1 X77.070 Y123.867 E0.01679
G1 X106.133 Y152.930 E1.29136
G1 X106.667 Y152.930 E0.01679
G1 X77.070 Y123.333 E1.31510
G1 X77.070 Y122.798 E0.01679
G1 X107.202 Y152.930 E1.33885
G1 X107.736 Y152.930 E0.01679
G1 X77.070 Y122.264 E1.36259
G1 X77.070 Y121.730 E0.01679
G1 X108.270 Y152.930 E1.38633
G1 X108.805 Y152.930 E0.01679
G1 X77.070 Y121.195 E1.41008
G1 X77.070 Y120.661 E0.01679
G1 X109.339 Y152.930 E1.43382
G1 X109.874 Y152.930 E0.01679
G1 X77.070 Y120.126 E1.45756
G1 X77.070 Y119.592 E0.01679
G1 X110.408 Y152.930 E1.48131
G1 X110.942 Y152.930 E0.01679
G1 X77.070 Y119.058 E1.50505
G1 X77.070 Y118.523 E0.01679
G1 X111.477 Y152.930 E1.52879
G1 X112.011 Y152.930 E0.01679
G1 X77.070 Y117.989 E1.55254
G1 X77.070 Y117.455 E0.01679
G1 X112.545 Y152.930 E1.57628
G1 X113.080 Y152.930 E0.01679
G1 X77.070 Y116.920 E1.60003
G1 X77.070 Y116.386 E0.01679
G1 X113.614 Y152.930 E1.62377
G1 X114.148 Y152.930 E0.01679
G1 X77.070 Y115.852 E1.64751
G1 X77.070 Y115.317 E0.01679
G1 X114.683 Y152.930 E1.67126
G1 X115.217 Y152.930 E0.01679
G1 X77.070 Y114.783 E1.69500
G1 X77.070 Y114.248 E0.01679
G1 X115.752 Y152.930 E1.71874
M73 Q2 S102
G1 X116.286 Y152.930 E0.01679
G1 X77.070 Y113.714 E1.74249
G1 X77.070 Y113.180 E0.01679
G1 X116.820 Y152.930 E1.76623
