; generated by PrusaSlicer 2.2.0+linux-x64 on 2021-05-04 at 20:13:38 UTC

; 

; external perimeters extrusion width = 0.45mm
; perimeters extrusion width = 0.45mm
; infill extrusion width = 0.45mm
; solid infill extrusion width = 0.45mm
; top infill extrusion width = 0.40mm
; support material extrusion width = 0.35mm
; first layer extrusion width = 0.42mm

M73 P0 R189
M73 Q0 S190
M201 X1000 Y1000 Z200 E5000 ; sets maximum accelerations, mm/sec^2
M203 X200 Y200 Z12 E120 ; sets maximum feedrates, mm/sec
M204 P1250 R1250 T1250 ; sets acceleration (P, T) and retract acceleration (R), mm/sec^2
M205 X8.00 Y8.00 Z0.40 E4.50 ; sets the jerk limits, mm/sec
M205 S0 T0 ; sets the minimum extruding and travel feed rate, mm/sec
M107
M862.3 P "MK3S" ; printer model check
M862.1 P0.4 ; nozzle diameter check
M115 U3.9.3 ; tell printer latest fw version
G90 ; use absolute coordinates
M83 ; extruder relative mode
M104 S215 ; set extruder temp
M140 S60 ; set bed temp
M190 S60 ; wait for bed temp
M109 S215 ; wait for extruder temp
G28 W ; home all without mesh bed level
G80 ; mesh bed leveling
G1 Y-3.0 F1000.0 ; go outside print area
G92 E0.0
G1 X60.0 E9.0 F1000.0 ; intro line
M73 Q0 S190
M73 P0 R189
G1 X100.0 E12.5 F1000.0 ; intro line
G92 E0.0
M221 S95

; Don't change E values below. Excessive value can damage the printer.
M907 E430 ; set extruder motor current
G21 ; set units to millimeters
G90 ; use absolute coordinates
M83 ; use relative distances for extrusion
M900 K0.05 ; Filament gcode LA 1.5
M900 K30 ; Filament gcode LA 1.0
;BEFORE_LAYER_CHANGE
G92 E0.0
;0.2


G1 E-0.80000 F2100.00000
G1 Z0.400 F10800.000
;AFTER_LAYER_CHANGE
;0.2
G1 X76.394 Y54.298
G1 Z0.200
G1 E0.80000 F2100.00000
M204 S1000
G1 F1200.000
G1 X78.384 Y53.704 E0.06512
G1 X78.937 Y53.626 E0.01752
G1 X171.004 Y53.623 E2.88669
G1 X171.540 Y53.685 E0.01692
G1 X173.238 Y54.143 E0.05515
G1 X173.692 Y54.348 E0.01562
G1 X174.093 Y54.643 E0.01562
G1 X175.332 Y55.874 E0.05475
G1 X175.654 Y56.307 E0.01692
G1 X175.871 Y56.805 E0.01704
G1 X176.318 Y58.474 E0.05415
G1 X180.920 Y97.320 E1.22652
G1 X180.911 Y112.981 E0.49103
G1 X176.356 Y151.318 E1.21050
G1 X175.833 Y153.307 E0.06446
G1 X175.336 Y154.116 E0.02977
G1 X174.107 Y155.350 E0.05463
G1 X173.606 Y155.702 E0.01917
G1 X171.600 Y156.300 E0.06563
G1 X171.028 Y156.377 E0.01811
G1 X78.973 Y156.377 E2.88631
G1 X78.456 Y156.314 E0.01633
G1 X76.743 Y155.851 E0.05566
G1 X76.283 Y155.640 E0.01585
G1 X75.876 Y155.334 E0.01597
G1 X74.551 Y153.991 E0.05916
G1 X74.114 Y153.144 E0.02989
G1 X73.685 Y151.540 E0.05203
G1 X69.136 Y131.730 E0.63731
G1 X69.078 Y131.235 E0.01562
G1 X69.084 Y69.561 E1.93376
G1 X69.244 Y68.862 E0.02249
G1 X74.201 Y56.602 E0.41463
G1 X74.667 Y55.875 E0.02708
G1 X75.896 Y54.647 E0.05446
G1 X76.344 Y54.333 E0.01718
; printing object top-Cube.stl id:0 copy 0
G1 F8640.000
G1 X78.384 Y53.704 E-0.49273
G1 X78.937 Y53.626 E-0.12899
G1 X79.536 Y53.626 E-0.13828
G1 E-0.04000 F2100.00000
G1 Z0.600 F10800.000
G1 X75.226 Y131.205
G1 Z0.200
G1 E0.80000 F2100.00000
G1 F1200.000
G1 X75.226 Y69.736 E1.92733
G1 X74.471 Y69.736 E0.02365
G1 X74.471 Y131.036 E1.92201
G1 X73.717 Y131.036 E0.02365
G1 X73.717 Y69.736 E1.92201
G1 X72.963 Y69.736 E0.02365
G1 X72.963 Y131.036 E1.92201
G1 X72.209 Y131.036 E0.02365
G1 X72.209 Y69.736 E1.92201
G1 X71.455 Y69.736 E0.02365
G1 X71.455 Y131.205 E1.92733
G1 F8640.000
G1 X71.455 Y127.914 E-0.76000
G1 E-0.04000 F2100.00000
G1 Z0.600 F10800.000
G1 X174.774 Y112.749
G1 Z0.200
G1 E0.80000 F2100.00000
G1 F1200.000
G1 X174.774 Y97.421 E0.48059
G1 X175.529 Y97.421 E0.02365
G1 X175.529 Y112.579 E0.47527
G1 X176.283 Y112.579 E0.02365
G1 X176.283 Y97.421 E0.47527
G1 X177.037 Y97.421 E0.02365
G1 X177.037 Y112.579 E0.47527
G1 X177.791 Y112.579 E0.02365
G1 X177.791 Y97.421 E0.47527
G1 X178.545 Y97.421 E0.02365
G1 X178.545 Y112.749 E0.48059
G1 F8640.000
G1 X178.545 Y109.457 E-0.76000
G1 E-0.04000 F2100.00000
G1 Z0.600 F10800.000
G1 X136.864 Y116.034
G1 Z0.200
G1 E0.80000 F2100.00000
G1 F1200.000
G1 X136.156 Y116.742 E0.03140
G1 X135.292 Y116.974 E0.02804
G1 X114.925 Y116.974 E0.63860
G1 X114.061 Y116.742 E0.02804
G1 X113.353 Y116.034 E0.03140
G1 X113.121 Y115.170 E0.02804
G1 X113.121 Y94.803 E0.63860
G1 X113.353 Y93.939 E0.02804
G1 X114.061 Y93.231 E0.03140
G1 X114.925 Y92.999 E0.02804
G1 X135.292 Y92.999 E0.63860
G1 X136.156 Y93.231 E0.02804
G1 X136.864 Y93.939 E0.03140
G1 X137.096 Y94.803 E0.02804
G1 X137.096 Y115.170 E0.63860
G1 X136.880 Y115.976 E0.02616
G1 X136.526 Y115.839 F10800.000
G1 F1200.000
G1 X135.961 Y116.404 E0.02507
G1 X135.242 Y116.597 E0.02331
G1 X114.974 Y116.597 E0.63549
G1 X114.256 Y116.404 E0.02331
G1 X113.691 Y115.839 E0.02507
G1 X113.498 Y115.121 E0.02331
G1 X113.498 Y94.853 E0.63549
G1 X113.691 Y94.134 E0.02331
G1 X114.256 Y93.569 E0.02507
G1 X114.974 Y93.377 E0.02331
G1 X135.242 Y93.377 E0.63549
G1 X135.961 Y93.569 E0.02331
G1 X136.526 Y94.134 E0.02507
G1 X136.718 Y94.853 E0.02331
G1 X136.718 Y115.121 E0.63549
G1 X136.542 Y115.781 E0.02143
G1 X136.725 Y116.186 F10800.000
G1 F8640.000
G1 X135.961 Y116.404 E-0.19672
G1 X135.242 Y116.597 E-0.17170
G1 X133.547 Y116.597 E-0.39158
G1 E-0.04000 F2100.00000
G1 Z0.600 F10800.000
G1 X136.207 Y119.055
G1 Z0.200
G1 E0.80000 F2100.00000
M73 Q0 S189
G1 F1200.000
G1 X136.945 Y119.793 E0.03270
G1 X137.187 Y120.696 E0.02934
G1 X137.187 Y123.304 E0.08175
G1 X136.945 Y124.207 E0.02934
G1 X136.207 Y124.945 E0.03270
G1 X135.304 Y125.187 E0.02934
G1 X132.696 Y125.187 E0.08175
G1 X131.793 Y124.945 E0.02934
G1 X131.055 Y124.207 E0.03270
G1 X130.813 Y123.304 E0.02934
G1 X130.813 Y120.696 E0.08175
G1 X131.055 Y119.793 E0.02934
G1 X131.793 Y119.055 E0.03270
G1 X132.696 Y118.813 E0.02934
M73 P0 R188
G1 X135.304 Y118.813 E0.08175
G1 X136.149 Y119.040 E0.02746
G1 X136.012 Y119.393 F10800.000
G1 F1200.000
G1 X136.607 Y119.988 E0.02637
G1 X136.810 Y120.746 E0.02461
G1 X136.810 Y123.254 E0.07864
G1 X136.607 Y124.012 E0.02461
G1 X136.012 Y124.607 E0.02637
G1 X135.254 Y124.810 E0.02461
G1 X132.746 Y124.810 E0.07864
G1 X131.988 Y124.607 E0.02461
G1 X131.393 Y124.012 E0.02637
G1 X131.190 Y123.254 E0.02461
G1 X131.190 Y120.746 E0.07864
G1 X131.393 Y119.988 E0.02461
G1 X131.988 Y119.393 E0.02637
G1 X132.746 Y119.190 E0.02461
G1 X135.254 Y119.190 E0.07864
G1 X135.954 Y119.378 E0.02273
G1 X136.363 Y119.200 F10800.000
G1 F8640.000
G1 X136.607 Y119.988 E-0.20628
G1 X136.810 Y120.746 E-0.18126
G1 X136.810 Y122.359 E-0.37246
G1 E-0.04000 F2100.00000
G1 Z0.600 F10800.000
G1 X172.093 Y152.892
G1 Z0.200
G1 E0.80000 F2100.00000
G1 F1200.000
G1 X170.896 Y153.213 E0.03883
G1 X79.104 Y153.213 E2.87810
G1 X77.907 Y152.892 E0.03883
G1 X77.108 Y152.093 E0.03547
G1 X76.787 Y150.896 E0.03883
G1 X76.787 Y59.104 E2.87810
G1 X77.108 Y57.907 E0.03883
G1 X77.907 Y57.108 E0.03547
G1 X79.104 Y56.787 E0.03883
G1 X170.896 Y56.787 E2.87810
G1 X172.093 Y57.108 E0.03883
G1 X172.892 Y57.907 E0.03547
G1 X173.213 Y59.104 E0.03883
G1 X173.213 Y150.896 E2.87810
G1 X172.892 Y152.093 E0.03883
G1 X172.135 Y152.850 E0.03358
G1 X172.288 Y153.230 F10800.000
G1 F1200.000
G1 X170.946 Y153.590 E0.04355
G1 X79.054 Y153.590 E2.88121
G1 X77.712 Y153.230 E0.04355
G1 X76.770 Y152.288 E0.04180
G1 X76.410 Y150.946 E0.04355
G1 X76.410 Y59.054 E2.88121
G1 X76.770 Y57.712 E0.04355
G1 X77.712 Y56.770 E0.04180
G1 X79.054 Y56.410 E0.04355
G1 X170.946 Y56.410 E2.88121
G1 X172.288 Y56.770 E0.04355
G1 X173.230 Y57.712 E0.04180
G1 X173.590 Y59.054 E0.04355
G1 X173.590 Y150.946 E2.88121
G1 X173.230 Y152.288 E0.04355
G1 X172.330 Y153.188 E0.03992
G1 X171.941 Y153.031 F10800.000
G1 F8640.000
G1 X170.946 Y153.590 E-0.33281
G1 X169.096 Y153.590 E-0.42719
G1 E-0.04000 F2100.00000
G1 Z0.600 F10800.000
G1 X169.894 Y153.100
G1 Z0.200
G1 E0.80000 F2100.00000
G1 F1200.000
G1 X137.470 Y120.676 E1.44070
G1 X137.470 Y121.210 E0.01679
G1 X169.190 Y152.930 E1.40942
G1 X168.655 Y152.930 E0.01679
G1 X137.470 Y121.745 E1.38567
G1 X137.470 Y122.279 E0.01679
G1 X168.121 Y152.930 E1.36193
G1 X167.586 Y152.930 E0.01679
G1 X137.470 Y122.814 E1.33819
G1 X137.468 Y123.346 E0.01674
G1 X167.052 Y152.930 E1.31451
G1 X166.518 Y152.930 E0.01679
G1 X137.355 Y123.768 E1.29578
G1 X137.243 Y124.189 E0.01371
G1 X165.983 Y152.930 E1.27705
G1 X165.449 Y152.930 E0.01679
G1 X137.036 Y124.517 E1.26251
M73 Q1 S188
M73 P1 R187
G1 X136.768 Y124.784 E0.01187
G1 X164.915 Y152.930 E1.25063
G1 X164.380 Y152.930 E0.01679
G1 X136.501 Y125.051 E1.23876
G1 X136.354 Y125.198 E0.00655
G1 X136.165 Y125.249 E0.00615
G1 X163.846 Y152.930 E1.22996
G1 X163.311 Y152.930 E0.01679
G1 X135.743 Y125.362 E1.22495
G1 X135.317 Y125.470 E0.01382
G1 X162.777 Y152.930 E1.22015
G1 X162.243 Y152.930 E0.01679
G1 X134.782 Y125.470 E1.22015
G1 X134.248 Y125.470 E0.01679
G1 X161.708 Y152.930 E1.22015
G1 X161.174 Y152.930 E0.01679
G1 X133.714 Y125.470 E1.22015
G1 X133.179 Y125.470 E0.01679
G1 X160.640 Y152.930 E1.22015
G1 X160.105 Y152.930 E0.01679
G1 X132.400 Y125.225 E1.23105
G1 F8640.000
G1 X134.727 Y127.552 E-0.76000
G1 E-0.04000 F2100.00000
G1 Z0.600 F10800.000
G1 X130.775 Y123.600
G1 Z0.200
G1 E0.80000 F2100.00000
G1 F1200.000
G1 X124.432 Y117.256 E0.28187
G1 X124.966 Y117.256 E0.01679
G1 X130.530 Y122.821 E0.24724
G1 X130.530 Y122.286 E0.01679
G1 X125.500 Y117.256 E0.22349
G1 X126.035 Y117.256 E0.01679
G1 X130.530 Y121.752 E0.19975
G1 X130.530 Y121.218 E0.01679
G1 X126.569 Y117.256 E0.17601
G1 X127.103 Y117.256 E0.01679
G1 X130.530 Y120.683 E0.15226
G1 X130.638 Y120.257 E0.01382
G1 X127.638 Y117.256 E0.13331
G1 X128.172 Y117.256 E0.01679
G1 X130.751 Y119.835 E0.11458
G1 X130.802 Y119.646 E0.00615
G1 X130.949 Y119.499 E0.00655
G1 X128.707 Y117.256 E0.09964
G1 X129.241 Y117.256 E0.01679
G1 X131.216 Y119.232 E0.08777
G1 X131.483 Y118.964 E0.01187
G1 X129.775 Y117.256 E0.07589
G1 X130.310 Y117.256 E0.01679
G1 X131.811 Y118.757 E0.06670
G1 X132.232 Y118.645 E0.01371
G1 X130.844 Y117.256 E0.06168
G1 X131.378 Y117.256 E0.01679
G1 X132.654 Y118.532 E0.05666
G1 X133.186 Y118.530 E0.01674
G1 X131.913 Y117.256 E0.05660
G1 X132.447 Y117.256 E0.01679
G1 X133.721 Y118.530 E0.05660
G1 X134.255 Y118.530 E0.01679
G1 X132.982 Y117.256 E0.05660
G1 X133.516 Y117.256 E0.01679
G1 X134.790 Y118.530 E0.05660
G1 X135.324 Y118.530 E0.01679
G1 X134.050 Y117.256 E0.05660
G1 X134.585 Y117.256 E0.01679
G1 X170.258 Y152.930 E1.58511
G1 X170.793 Y152.930 E0.01679
G1 X135.119 Y117.256 E1.58511
G1 X135.329 Y117.256 E0.00661
G1 X135.585 Y117.188 E0.00831
G1 X171.228 Y152.831 E1.58375
G1 X171.650 Y152.718 E0.01371
G1 X136.006 Y117.075 E1.58375
G1 X136.302 Y116.996 E0.00962
G1 X136.382 Y116.916 E0.00354
G1 X172.025 Y152.560 E1.58377
G1 X172.293 Y152.292 E0.01187
G1 X136.649 Y116.649 E1.58377
G1 X136.916 Y116.382 E0.01187
G1 X172.560 Y152.025 E1.58377
G1 X172.639 Y151.946 E0.00351
G1 X172.718 Y151.650 E0.00965
G1 X137.145 Y116.077 E1.58063
G1 X137.258 Y115.655 E0.01371
G1 X172.831 Y151.228 E1.58063
G1 X172.930 Y150.859 E0.01200
G1 X172.930 Y150.793 E0.00209
G1 X137.371 Y115.234 E1.58000
G1 X137.378 Y114.706 E0.01657
G1 X172.930 Y150.258 E1.57969
G1 X172.930 Y149.724 E0.01679
G1 X137.378 Y114.172 E1.57969
G1 X137.378 Y113.638 E0.01679
G1 X172.930 Y149.189 E1.57969
G1 X172.930 Y148.655 E0.01679
G1 X137.378 Y113.103 E1.57969
M73 Q1 S187
M73 P1 R186
G1 X137.378 Y112.569 E0.01679
G1 X172.930 Y148.121 E1.57969
G1 X172.930 Y147.586 E0.01679
G1 X137.378 Y112.034 E1.57969
G1 X137.378 Y111.500 E0.01679
G1 X172.930 Y147.052 E1.57969
G1 X172.930 Y146.518 E0.01679
G1 X137.378 Y110.966 E1.57969
G1 X137.378 Y110.431 E0.01679
G1 X172.930 Y145.983 E1.57969
G1 X172.930 Y145.449 E0.01679
G1 X137.378 Y109.897 E1.57969
G1 X137.378 Y109.363 E0.01679
G1 X172.930 Y144.914 E1.57969
G1 X172.930 Y144.380 E0.01679
G1 X137.378 Y108.828 E1.57969
G1 X137.378 Y108.294 E0.01679
G1 X172.930 Y143.846 E1.57969
G1 X172.930 Y143.311 E0.01679
G1 X137.378 Y107.759 E1.57969
G1 X137.378 Y107.225 E0.01679
G1 X172.930 Y142.777 E1.57969
G1 X172.930 Y142.243 E0.01679
G1 X137.378 Y106.691 E1.57969
G1 X137.378 Y106.156 E0.01679
G1 X172.930 Y141.708 E1.57969
G1 X172.930 Y141.174 E0.01679
G1 X137.378 Y105.622 E1.57969
G1 X137.378 Y105.088 E0.01679
G1 X172.930 Y140.639 E1.57969
G1 X172.930 Y140.105 E0.01679
G1 X137.378 Y104.553 E1.57969
G1 X137.378 Y104.019 E0.01679
G1 X172.930 Y139.571 E1.57969
G1 X172.930 Y139.036 E0.01679
G1 X137.378 Y103.484 E1.57969
G1 X137.378 Y102.950 E0.01679
G1 X172.930 Y138.502 E1.57969
G1 X172.930 Y137.968 E0.01679
G1 X137.378 Y102.416 E1.57969
G1 X137.378 Y101.881 E0.01679
G1 X172.930 Y137.433 E1.57969
G1 X172.930 Y136.899 E0.01679
G1 X137.378 Y101.347 E1.57969
G1 X137.378 Y100.813 E0.01679
G1 X172.930 Y136.364 E1.57969
G1 X172.930 Y135.830 E0.01679
G1 X137.378 Y100.278 E1.57969
M73 Q2 S186
M73 P2 R185
G1 X137.378 Y99.744 E0.01679
G1 X172.930 Y135.296 E1.57969
G1 X172.930 Y134.761 E0.01679
G1 X137.378 Y99.209 E1.57969
G1 X137.378 Y98.675 E0.01679
G1 X172.930 Y134.227 E1.57969
G1 X172.930 Y133.693 E0.01679
G1 X137.378 Y98.141 E1.57969
G1 X137.378 Y97.606 E0.01679
G1 X172.930 Y133.158 E1.57969
G1 X172.930 Y132.624 E0.01679
G1 X137.378 Y97.072 E1.57969
G1 X137.378 Y96.538 E0.01679
G1 X172.930 Y132.089 E1.57969
G1 X172.930 Y131.555 E0.01679
G1 X137.378 Y96.003 E1.57969
G1 X137.378 Y95.469 E0.01679
G1 X172.930 Y131.021 E1.57969
G1 X172.930 Y130.486 E0.01679
G1 X137.378 Y94.934 E1.57969
G1 X137.378 Y94.766 E0.00530
G1 X137.244 Y94.266 E0.01625
G1 X172.930 Y129.952 E1.58564
G1 X172.930 Y129.418 E0.01679
G1 X100.582 Y57.070 E3.21466
G1 X101.117 Y57.070 E0.01679
G1 X172.930 Y128.883 E3.19091
G1 X172.930 Y128.349 E0.01679
G1 X101.651 Y57.070 E3.16717
G1 X102.186 Y57.070 E0.01679
G1 X172.930 Y127.814 E3.14342
G1 X172.930 Y127.280 E0.01679
G1 X102.720 Y57.070 E3.11968
G1 X103.254 Y57.070 E0.01679
G1 X172.930 Y126.746 E3.09594
G1 X172.930 Y126.211 E0.01679
G1 X103.789 Y57.070 E3.07219
M73 Q2 S185
M73 P2 R184
G1 X104.323 Y57.070 E0.01679
G1 X172.930 Y125.677 E3.04845
G1 X172.930 Y125.143 E0.01679
G1 X104.857 Y57.070 E3.02470
G1 X105.392 Y57.070 E0.01679
G1 X172.930 Y124.608 E3.00096
G1 X172.930 Y124.074 E0.01679
G1 X105.926 Y57.070 E2.97721
G1 X106.461 Y57.070 E0.01679
G1 X172.930 Y123.539 E2.95347
G1 X172.930 Y123.005 E0.01679
G1 X106.995 Y57.070 E2.92973
G1 X107.529 Y57.070 E0.01679
G1 X172.930 Y122.471 E2.90598
G1 X172.930 Y121.936 E0.01679
G1 X108.064 Y57.070 E2.88224
G1 X108.598 Y57.070 E0.01679
G1 X172.930 Y121.402 E2.85849
G1 X172.930 Y120.868 E0.01679
G1 X109.132 Y57.070 E2.83475
G1 X109.667 Y57.070 E0.01679
G1 X172.930 Y120.333 E2.81101
G1 X172.930 Y119.799 E0.01679
G1 X110.201 Y57.070 E2.78726
G1 X110.736 Y57.070 E0.01679
G1 X172.930 Y119.264 E2.76352
M73 Q3 S184
M73 P3 R183
G1 X172.930 Y118.730 E0.01679
G1 X111.270 Y57.070 E2.73977
G1 X111.804 Y57.070 E0.01679
G1 X172.930 Y118.196 E2.71603
G1 X172.930 Y117.661 E0.01679
G1 X112.339 Y57.070 E2.69229
G1 X112.873 Y57.070 E0.01679
G1 X172.930 Y117.127 E2.66854
G1 X172.930 Y116.593 E0.01679
G1 X113.407 Y57.070 E2.64480
G1 X113.942 Y57.070 E0.01679
G1 X172.930 Y116.058 E2.62105
G1 X172.930 Y115.524 E0.01679
G1 X114.476 Y57.070 E2.59731
G1 X115.011 Y57.070 E0.01679
G1 X172.930 Y114.989 E2.57357
G1 X172.930 Y114.455 E0.01679
G1 X115.545 Y57.070 E2.54982
G1 X116.079 Y57.070 E0.01679
G1 X172.930 Y113.921 E2.52608
G1 X172.930 Y113.386 E0.01679
G1 X116.614 Y57.070 E2.50233
G1 X117.148 Y57.070 E0.01679
G1 X172.930 Y112.852 E2.47859
G1 X172.930 Y112.318 E0.01679
G1 X117.682 Y57.070 E2.45484
G1 X118.217 Y57.070 E0.01679
G1 X172.930 Y111.783 E2.43110
G1 X172.930 Y111.249 E0.01679
G1 X118.751 Y57.070 E2.40736
M73 Q3 S183
M73 P3 R182
G1 X119.286 Y57.070 E0.01679
G1 X172.930 Y110.714 E2.38361
G1 X172.930 Y110.180 E0.01679
G1 X119.820 Y57.070 E2.35987
G1 X120.354 Y57.070 E0.01679
G1 X172.930 Y109.646 E2.33612
G1 X172.930 Y109.111 E0.01679
G1 X120.889 Y57.070 E2.31238
G1 X121.423 Y57.070 E0.01679
G1 X172.930 Y108.577 E2.28864
G1 X172.930 Y108.043 E0.01679
G1 X121.957 Y57.070 E2.26489
G1 X122.492 Y57.070 E0.01679
G1 X172.930 Y107.508 E2.24115
G1 X172.930 Y106.974 E0.01679
G1 X123.026 Y57.070 E2.21740
G1 X123.561 Y57.070 E0.01679
G1 X172.930 Y106.439 E2.19366
G1 X172.930 Y105.905 E0.01679
