; generated by PrusaSlicer 2.3.1+linux-x64 on 2021-05-13 at 12:40:37 UTC

; 

; external perimeters extrusion width = 0.45mm
; perimeters extrusion width = 0.45mm
; infill extrusion width = 0.45mm
; solid infill extrusion width = 0.45mm
; top infill extrusion width = 0.40mm
; first layer extrusion width = 0.42mm

M73 P0 R5
M73 Q0 S5
M201 X1000 Y1000 Z200 E5000 ; sets maximum accelerations, mm/sec^2
M203 X200 Y200 Z12 E120 ; sets maximum feedrates, mm/sec
M204 P1250 R1250 T1250 ; sets acceleration (P, T) and retract acceleration (R), mm/sec^2
M205 X8.00 Y8.00 Z0.40 E4.50 ; sets the jerk limits, mm/sec
M205 S0 T0 ; sets the minimum extruding and travel feed rate, mm/sec
M107
;TYPE:Custom
M862.3 P "MK3S" ; printer model check
M862.1 P0.4 ; nozzle diameter check
M115 U3.9.2 ; tell printer latest fw version
G90 ; use absolute coordinates
M83 ; extruder relative mode
M104 S215 ; set extruder temp
M140 S60 ; set bed temp
M190 S60 ; wait for bed temp
M109 S215 ; wait for extruder temp
G28 W ; home all without mesh bed level
G80 ; mesh bed leveling
G1 Y-3.0 F1000.0 ; go outside print area
G92 E0.0
G1 X60.0 E9.0 F1000.0 ; intro line
M73 P1 R5
M73 Q1 S5
G1 X100.0 E12.5 F1000.0 ; intro line
G92 E0.0
M221 S95

; Don't change E values below. Excessive value can damage the printer.
M907 E430 ; set extruder motor current
G21 ; set units to millimeters
G90 ; use absolute coordinates
M83 ; use relative distances for extrusion
M900 K0.05 ; Filament gcode LA 1.5
M900 K30 ; Filament gcode LA 1.0
;LAYER_CHANGE
;Z:0.2
;HEIGHT:0.2
;BEFORE_LAYER_CHANGE
G92 E0.0
;0.2


M73 P2 R5
M73 Q2 S5
G1 E-0.80000 F2100.000
G1 Z0.400 F10800.000
;AFTER_LAYER_CHANGE
;0.2
G1 X118.408 Y101.363
G1 Z0.200
G1 E0.80000 F2100.000
M204 S1000
;TYPE:Skirt
;WIDTH:0.42
G1 F1186
G1 X118.876 Y100.690 E0.02570
G1 X120.586 Y98.975 E0.07594
G1 X121.143 Y98.533 E0.02229
G1 X121.789 Y98.226 E0.02243
G1 X124.283 Y97.552 E0.08101
G1 X125.006 Y97.469 E0.02284
G1 X125.785 Y97.569 E0.02461
G1 X128.086 Y98.186 E0.07471
G1 X128.641 Y98.410 E0.01875
G1 X129.313 Y98.879 E0.02570
G1 X131.025 Y100.586 E0.07580
G1 X131.467 Y101.143 E0.02229
G1 X131.774 Y101.789 E0.02243
G1 X132.448 Y104.283 E0.08101
G1 X132.531 Y105.002 E0.02270
G1 X132.431 Y105.785 E0.02474
G1 X131.814 Y108.086 E0.07471
G1 X131.590 Y108.641 E0.01875
G1 X131.121 Y109.313 E0.02570
G1 X129.414 Y111.025 E0.07580
G1 X128.854 Y111.469 E0.02243
G1 X128.211 Y111.774 E0.02229
G1 X125.717 Y112.448 E0.08101
M73 Q3 S5
G1 X124.998 Y112.531 E0.02270
G1 X124.215 Y112.431 E0.02474
G1 X121.914 Y111.814 E0.07471
G1 X121.359 Y111.590 E0.01875
G1 X120.690 Y111.124 E0.02556
G1 X118.975 Y109.414 E0.07594
M73 P3 R5
G1 X118.531 Y108.854 E0.02243
G1 X118.226 Y108.211 E0.02229
G1 X117.552 Y105.717 E0.08101
G1 X117.469 Y104.998 E0.02270
G1 X117.569 Y104.215 E0.02474
G1 X118.185 Y101.918 E0.07457
G1 X118.385 Y101.419 E0.01687
G1 X118.734 Y101.559 F10800.000
G1 F1186
G1 X119.163 Y100.935 E0.02376
G1 X120.853 Y99.242 E0.07498
G1 X121.350 Y98.848 E0.01988
G1 X121.923 Y98.579 E0.01988
G1 X124.363 Y97.921 E0.07922
G1 X125.005 Y97.846 E0.02026
G1 X125.694 Y97.935 E0.02180
G1 X127.972 Y98.546 E0.07395
G1 X128.477 Y98.749 E0.01707
G1 X129.068 Y99.166 E0.02269
G1 X130.758 Y100.853 E0.07485
G1 X131.152 Y101.350 E0.01988
G1 X131.421 Y101.923 E0.01988
G1 X132.079 Y104.363 E0.07922
G1 X132.154 Y105.001 E0.02014
G1 X132.065 Y105.694 E0.02192
G1 X131.454 Y107.972 E0.07395
G1 X131.253 Y108.473 E0.01694
G1 X130.837 Y109.065 E0.02269
G1 X129.147 Y110.758 E0.07498
G1 X128.650 Y111.152 E0.01988
G1 X128.077 Y111.421 E0.01988
G1 X125.637 Y112.079 E0.07922
G1 X124.999 Y112.154 E0.02014
G1 X124.306 Y112.065 E0.02192
G1 X122.028 Y111.454 E0.07395
G1 X121.527 Y111.253 E0.01694
G1 X120.935 Y110.837 E0.02269
G1 X119.242 Y109.147 E0.07498
G1 X118.848 Y108.650 E0.01988
G1 X118.579 Y108.077 E0.01988
G1 X117.921 Y105.637 E0.07922
G1 X117.846 Y104.999 E0.02014
M73 Q4 S5
G1 X117.935 Y104.306 E0.02192
G1 X118.546 Y102.028 E0.07395
G1 X118.712 Y101.615 E0.01397
G1 X119.086 Y101.693 F10800.000
G1 F1186
G1 X119.448 Y101.182 E0.01965
G1 X121.119 Y99.509 E0.07413
M73 P4 R5
G1 X121.555 Y99.165 E0.01740
G1 X122.054 Y98.932 E0.01728
G1 X124.444 Y98.289 E0.07759
G1 X125.002 Y98.223 E0.01763
G1 X125.601 Y98.300 E0.01894
G1 X128.311 Y99.088 E0.08846
G1 X128.821 Y99.451 E0.01965
G1 X130.491 Y101.119 E0.07401
G1 X130.833 Y101.551 E0.01728
G1 X131.066 Y102.051 E0.01728
G1 X131.711 Y104.444 E0.07771
G1 X131.777 Y104.999 E0.01752
G1 X131.711 Y105.557 E0.01763
G1 X131.067 Y107.947 E0.07759
G1 X130.835 Y108.446 E0.01728
G1 X130.491 Y108.881 E0.01737
G1 X128.821 Y110.550 E0.07404
G1 X128.310 Y110.913 E0.01965
G1 X125.601 Y111.700 E0.08846
G1 X125.001 Y111.777 E0.01894
G1 X124.443 Y111.711 E0.01763
G1 X122.053 Y111.067 E0.07759
G1 X121.554 Y110.835 E0.01728
G1 X121.119 Y110.491 E0.01737
G1 X119.450 Y108.821 E0.07404
G1 X119.087 Y108.310 E0.01965
G1 X118.300 Y105.600 E0.08846
G1 X118.223 Y105.001 E0.01894
G1 X118.300 Y104.399 E0.01906
G1 X119.069 Y101.750 E0.08646
; printing object go-Cube.stl id:0 copy 0
;WIPE_START
G1 F8640.000
G1 X119.448 Y101.182 E-0.15785
G1 X121.119 Y99.509 E-0.54592
G1 X121.310 Y99.358 E-0.05623
;WIPE_END
G1 E-0.04000 F2100.000
G1 Z0.600 F10800.000
G1 X121.895 Y103.207
G1 Z0.200
G1 E0.80000 F2100.000
;TYPE:Perimeter
G1 F1186
G1 X123.207 Y101.895 E0.05819
G1 X125.000 Y101.415 E0.05819
G1 X126.793 Y101.895 E0.05819
M73 Q5 S5
G1 X128.105 Y103.207 E0.05819
G1 X128.585 Y105.000 E0.05819
G1 X128.105 Y106.793 E0.05819
G1 X126.793 Y108.105 E0.05819
M73 P5 R5
G1 X125.000 Y108.585 E0.05819
G1 X123.207 Y108.105 E0.05819
G1 X121.895 Y106.793 E0.05819
G1 X121.415 Y105.000 E0.05819
G1 X121.880 Y103.265 E0.05631
G1 X121.557 Y103.012 F10800.000
;TYPE:External perimeter
G1 F1186
G1 X123.012 Y101.557 E0.06452
G1 X125.000 Y101.024 E0.06452
G1 X126.988 Y101.557 E0.06452
G1 X128.443 Y103.012 E0.06452
G1 X128.976 Y105.000 E0.06452
G1 X128.443 Y106.988 E0.06452
G1 X126.988 Y108.443 E0.06452
G1 X125.000 Y108.976 E0.06452
G1 X123.012 Y108.443 E0.06452
G1 X121.557 Y106.988 E0.06452
G1 X121.024 Y105.000 E0.06452
G1 X121.542 Y103.070 E0.06264
G1 X121.957 Y103.012 F10800.000
;WIPE_START
G1 F8640.000
G1 X123.012 Y101.557 E-0.48722
G1 X124.153 Y101.251 E-0.27278
;WIPE_END
G1 E-0.04000 F2100.000
G1 Z0.600 F10800.000
G1 X126.388 Y101.904
G1 Z0.200
G1 E0.80000 F2100.000
;TYPE:Solid infill
;WIDTH:0.439241
G1 F1186
G1 X127.856 Y103.372 E0.06845
G1 X128.061 Y104.138 E0.02612
G1 X125.862 Y101.939 E0.10251
G1 X125.096 Y101.733 E0.02612
G1 X128.267 Y104.904 E0.14775
M73 Q6 S5
G1 X128.292 Y105.000 E0.00328
G1 X128.189 Y105.386 E0.01319
G1 X124.614 Y101.811 E0.16662
M73 P6 R5
G1 X124.171 Y101.930 E0.01508
G1 X128.070 Y105.829 E0.18171
G1 X127.952 Y106.271 E0.01508
G1 X123.729 Y102.048 E0.19679
G1 X123.354 Y102.149 E0.01282
G1 X123.312 Y102.191 E0.00196
G1 X127.809 Y106.688 E0.20960
G1 X127.529 Y106.969 E0.01306
G1 X123.031 Y102.471 E0.20960
G1 X122.751 Y102.751 E0.01306
G1 X127.249 Y107.249 E0.20960
G1 X126.968 Y107.529 E0.01306
G1 X122.471 Y103.032 E0.20960
G1 X122.191 Y103.312 E0.01306
G1 X126.688 Y107.809 E0.20960
G1 X126.646 Y107.851 E0.00196
G1 X126.270 Y107.952 E0.01282
G1 X122.048 Y103.730 E0.19678
M73 Q7 S5
G1 X121.930 Y104.172 E0.01508
G1 X125.828 Y108.070 E0.18170
M73 P7 R5
G1 X125.386 Y108.189 E0.01508
G1 X121.811 Y104.614 E0.16662
G1 X121.708 Y105.000 E0.01318
G1 X121.733 Y105.096 E0.00329
G1 X124.904 Y108.267 E0.14774
G1 X124.138 Y108.061 E0.02612
G1 X121.939 Y105.862 E0.10250
G1 X122.144 Y106.628 E0.02612
G1 X123.612 Y108.096 E0.06844
; stop printing object go-Cube.stl id:0 copy 0
M106 S84.15
;LAYER_CHANGE
;Z:0.4
;HEIGHT:0.2
;BEFORE_LAYER_CHANGE
G92 E0.0
;0.4


;WIPE_START
G1 F8640.000
G1 X122.144 Y106.628 E-0.47955
G1 X121.939 Y105.862 E-0.18302
G1 X122.237 Y106.160 E-0.09743
;WIPE_END
G1 E-0.04000 F2100.000
G1 Z0.600 F10800.000
;AFTER_LAYER_CHANGE
;0.4
G1 X118.531 Y108.854
G1 Z0.400
G1 E0.80000 F2100.000
;TYPE:Skirt
;WIDTH:0.42
G1 F1144
G1 X118.226 Y108.211 E0.02229
G1 X117.552 Y105.717 E0.08101
G1 X117.469 Y104.998 E0.02270
G1 X117.569 Y104.215 E0.02474
G1 X118.185 Y101.918 E0.07457
G1 X118.408 Y101.363 E0.01875
G1 X118.876 Y100.690 E0.02570
G1 X120.586 Y98.975 E0.07594
G1 X121.143 Y98.533 E0.02229
G1 X121.789 Y98.226 E0.02243
G1 X124.283 Y97.552 E0.08101
G1 X125.006 Y97.469 E0.02284
G1 X125.785 Y97.569 E0.02461
G1 X128.086 Y98.186 E0.07471
G1 X128.641 Y98.410 E0.01875
G1 X129.313 Y98.879 E0.02570
G1 X131.025 Y100.586 E0.07580
M73 Q8 S5
G1 X131.467 Y101.143 E0.02229
G1 X131.774 Y101.789 E0.02243
G1 X132.448 Y104.283 E0.08101
G1 X132.531 Y105.002 E0.02270
G1 X132.431 Y105.785 E0.02474
G1 X131.814 Y108.086 E0.07471
M73 P8 R5
G1 X131.590 Y108.641 E0.01875
G1 X131.121 Y109.313 E0.02570
G1 X129.414 Y111.025 E0.07580
G1 X128.854 Y111.469 E0.02243
G1 X128.211 Y111.774 E0.02229
G1 X125.717 Y112.448 E0.08101
G1 X124.998 Y112.531 E0.02270
G1 X124.215 Y112.431 E0.02474
G1 X121.914 Y111.814 E0.07471
G1 X121.359 Y111.590 E0.01875
G1 X120.690 Y111.124 E0.02556
G1 X118.975 Y109.414 E0.07594
G1 X118.568 Y108.901 E0.02055
G1 X118.862 Y108.668 F10800.000
G1 F1144
G1 X118.579 Y108.077 E0.02056
G1 X117.921 Y105.637 E0.07922
G1 X117.846 Y104.999 E0.02014
G1 X117.935 Y104.306 E0.02192
G1 X118.546 Y102.028 E0.07395
G1 X118.747 Y101.527 E0.01694
G1 X119.163 Y100.935 E0.02269
G1 X120.853 Y99.242 E0.07498
G1 X121.350 Y98.848 E0.01988
G1 X121.923 Y98.579 E0.01988
G1 X124.363 Y97.921 E0.07922
G1 X125.005 Y97.846 E0.02026
G1 X125.694 Y97.935 E0.02180
G1 X127.972 Y98.546 E0.07395
G1 X128.477 Y98.749 E0.01707
G1 X129.068 Y99.166 E0.02269
G1 X130.758 Y100.853 E0.07485
G1 X131.152 Y101.350 E0.01988
G1 X131.421 Y101.923 E0.01988
G1 X132.079 Y104.363 E0.07922
G1 X132.154 Y105.001 E0.02014
G1 X132.065 Y105.694 E0.02192
G1 X131.454 Y107.972 E0.07395
G1 X131.253 Y108.473 E0.01694
G1 X130.837 Y109.065 E0.02269
G1 X129.147 Y110.758 E0.07498
M73 Q9 S5
G1 X128.650 Y111.152 E0.01988
G1 X128.077 Y111.421 E0.01988
G1 X125.637 Y112.079 E0.07922
G1 X124.999 Y112.154 E0.02014
G1 X124.306 Y112.065 E0.02192
G1 X122.028 Y111.454 E0.07395
M73 P9 R5
G1 X121.527 Y111.253 E0.01694
G1 X120.935 Y110.837 E0.02269
G1 X119.242 Y109.147 E0.07498
G1 X118.899 Y108.715 E0.01731
G1 X119.087 Y108.310 F10800.000
G1 F1144
G1 X118.300 Y105.600 E0.08846
G1 X118.223 Y105.001 E0.01894
G1 X118.300 Y104.399 E0.01906
G1 X119.086 Y101.693 E0.08835
G1 X119.448 Y101.182 E0.01965
G1 X121.119 Y99.509 E0.07413
G1 X121.555 Y99.165 E0.01740
G1 X122.054 Y98.932 E0.01728
G1 X124.444 Y98.289 E0.07759
G1 X125.002 Y98.223 E0.01763
G1 X125.601 Y98.300 E0.01894
G1 X128.311 Y99.088 E0.08846
G1 X128.821 Y99.451 E0.01965
G1 X130.491 Y101.119 E0.07401
G1 X130.833 Y101.551 E0.01728
G1 X131.066 Y102.051 E0.01728
G1 X131.711 Y104.444 E0.07771
G1 X131.777 Y104.999 E0.01752
G1 X131.711 Y105.557 E0.01763
G1 X131.067 Y107.947 E0.07759
G1 X130.835 Y108.446 E0.01728
G1 X130.491 Y108.881 E0.01737
G1 X128.821 Y110.550 E0.07404
G1 X128.310 Y110.913 E0.01965
G1 X125.601 Y111.700 E0.08846
G1 X125.001 Y111.777 E0.01894
G1 X124.443 Y111.711 E0.01763
G1 X122.053 Y111.067 E0.07759
G1 X121.554 Y110.835 E0.01728
G1 X121.119 Y110.491 E0.01737
G1 X119.450 Y108.821 E0.07404
G1 X119.122 Y108.359 E0.01777
; printing object go-Cube.stl id:0 copy 0
;WIPE_START
G1 F8640.000
G1 X118.300 Y105.600 E-0.66456
G1 X118.247 Y105.191 E-0.09544
;WIPE_END
M73 Q10 S5
G1 E-0.04000 F2100.000
G1 Z0.800 F10800.000
G1 X121.756 Y106.873
M73 P9 R4
G1 Z0.400
G1 E0.80000 F2100.000
M204 S800
;TYPE:Perimeter
;WIDTH:0.45
M73 Q10 S4
G1 F1144
G1 X121.254 Y105.000 E0.06563
M73 P10 R4
G1 X121.756 Y103.127 E0.06563
G1 X123.127 Y101.756 E0.06563
G1 X125.000 Y101.254 E0.06563
G1 X126.873 Y101.756 E0.06563
G1 X128.244 Y103.127 E0.06563
G1 X128.746 Y105.000 E0.06563
G1 X128.244 Y106.873 E0.06563
G1 X126.873 Y108.244 E0.06563
G1 X125.000 Y108.746 E0.06563
G1 X123.127 Y108.244 E0.06563
G1 X121.799 Y106.915 E0.06360
M204 S1000
G1 X121.391 Y107.084 F10800.000
M204 S800
;TYPE:External perimeter
G1 F1144
G1 X120.833 Y105.000 E0.07301
G1 X121.391 Y102.916 E0.07301
G1 X122.916 Y101.391 E0.07301
G1 X125.000 Y100.833 E0.07301
G1 X127.084 Y101.391 E0.07301
G1 X128.609 Y102.916 E0.07301
G1 X129.167 Y105.000 E0.07301
G1 X128.609 Y107.084 E0.07301
G1 X127.084 Y108.609 E0.07301
G1 X125.000 Y109.167 E0.07301
G1 X122.916 Y108.609 E0.07301
G1 X121.434 Y107.126 E0.07098
M204 S1000
G1 X121.591 Y106.737 F10800.000
;WIPE_START
G1 F8640.000
G1 X120.833 Y105.000 E-0.51011
M73 Q11 S4
G1 X121.113 Y103.955 E-0.24989
;WIPE_END
G1 E-0.04000 F2100.000
G1 Z0.800 F10800.000
G1 X123.551 Y101.769
G1 Z0.400
G1 E0.80000 F2100.000
;TYPE:Solid infill
;WIDTH:0.456593
M73 P11 R4
G1 F1144
G1 X122.028 Y103.292 E0.07405
G1 X121.814 Y104.091 E0.02846
G1 X124.091 Y101.814 E0.11074
G1 X124.890 Y101.600 E0.02846
G1 X121.600 Y104.890 E0.16003
G1 X121.570 Y105.000 E0.00392
G1 X121.677 Y105.398 E0.01417
G1 X125.398 Y101.677 E0.18099
G1 X125.859 Y101.801 E0.01643
G1 X121.801 Y105.859 E0.19743
G1 X121.924 Y106.321 E0.01643
G1 X126.321 Y101.924 E0.21386
G1 X126.715 Y102.030 E0.01404
G1 X126.757 Y102.073 E0.00207
G1 X122.073 Y106.757 E0.22789
G1 X122.365 Y107.050 E0.01423
G1 X127.050 Y102.365 E0.22789
G1 X127.342 Y102.658 E0.01423
G1 X122.658 Y107.342 E0.22789
M73 Q12 S4
G1 X122.950 Y107.635 E0.01423
G1 X127.635 Y102.950 E0.22789
M73 P12 R4
G1 X127.927 Y103.243 E0.01423
G1 X123.243 Y107.927 E0.22789
G1 X123.285 Y107.970 E0.00208
G1 X123.679 Y108.076 E0.01403
G1 X128.076 Y103.679 E0.21386
G1 X128.199 Y104.141 E0.01643
G1 X124.141 Y108.199 E0.19743
G1 X124.602 Y108.323 E0.01643
G1 X128.323 Y104.602 E0.18100
G1 X128.430 Y105.000 E0.01417
G1 X128.400 Y105.110 E0.00392
G1 X125.110 Y108.400 E0.16004
G1 X125.909 Y108.186 E0.02846
G1 X128.186 Y105.909 E0.11075
G1 X127.972 Y106.708 E0.02846
G1 X126.449 Y108.231 E0.07406
; stop printing object go-Cube.stl id:0 copy 0
M106 S170.85
;LAYER_CHANGE
;Z:0.6
;HEIGHT:0.2
;BEFORE_LAYER_CHANGE
G92 E0.0
;0.6


;WIPE_START
G1 F8640.000
G1 X127.972 Y106.708 E-0.49719
G1 X128.186 Y105.909 E-0.19104
G1 X127.966 Y106.129 E-0.07178
;WIPE_END
G1 E-0.04000 F2100.000
G1 Z0.800 F10800.000
;AFTER_LAYER_CHANGE
;0.6
G1 X131.590 Y108.641
G1 Z0.600
G1 E0.80000 F2100.000
;TYPE:Skirt
;WIDTH:0.42
G1 F1151
G1 X131.121 Y109.313 E0.02570
M73 Q13 S4
G1 X129.414 Y111.025 E0.07580
G1 X128.854 Y111.469 E0.02243
G1 X128.211 Y111.774 E0.02229
G1 X125.717 Y112.448 E0.08101
M73 P13 R4
G1 X124.998 Y112.531 E0.02270
G1 X124.215 Y112.431 E0.02474
G1 X121.914 Y111.814 E0.07471
G1 X121.359 Y111.590 E0.01875
G1 X120.690 Y111.124 E0.02556
G1 X118.975 Y109.414 E0.07594
G1 X118.531 Y108.854 E0.02243
G1 X118.226 Y108.211 E0.02229
G1 X117.552 Y105.717 E0.08101
G1 X117.469 Y104.998 E0.02270
G1 X117.569 Y104.215 E0.02474
G1 X118.185 Y101.918 E0.07457
G1 X118.408 Y101.363 E0.01875
G1 X118.876 Y100.690 E0.02570
G1 X120.586 Y98.975 E0.07594
G1 X121.143 Y98.533 E0.02229
G1 X121.789 Y98.226 E0.02243
G1 X124.283 Y97.552 E0.08101
G1 X125.006 Y97.469 E0.02284
G1 X125.785 Y97.569 E0.02461
G1 X128.086 Y98.186 E0.07471
G1 X128.641 Y98.410 E0.01875
G1 X129.313 Y98.879 E0.02570
G1 X131.025 Y100.586 E0.07580
G1 X131.467 Y101.143 E0.02229
G1 X131.774 Y101.789 E0.02243
G1 X132.448 Y104.283 E0.08101
G1 X132.531 Y105.002 E0.02270
G1 X132.431 Y105.785 E0.02474
G1 X131.814 Y108.086 E0.07471
G1 X131.613 Y108.585 E0.01687
G1 X131.264 Y108.445 F10800.000
G1 F1151
G1 X130.837 Y109.065 E0.02362
G1 X129.147 Y110.758 E0.07498
G1 X128.650 Y111.152 E0.01988
G1 X128.077 Y111.421 E0.01988
G1 X125.637 Y112.079 E0.07922
G1 X124.999 Y112.154 E0.02014
G1 X124.306 Y112.065 E0.02192
G1 X122.028 Y111.454 E0.07395
G1 X121.527 Y111.253 E0.01694
M73 Q14 S4
G1 X120.935 Y110.837 E0.02269
G1 X119.242 Y109.147 E0.07498
G1 X118.848 Y108.650 E0.01988
G1 X118.579 Y108.077 E0.01988
G1 X117.921 Y105.637 E0.07922
M73 P14 R4
G1 X117.846 Y104.999 E0.02014
G1 X117.935 Y104.306 E0.02192
G1 X118.546 Y102.028 E0.07395
G1 X118.747 Y101.527 E0.01694
G1 X119.163 Y100.935 E0.02269
G1 X120.853 Y99.242 E0.07498
G1 X121.350 Y98.848 E0.01988
G1 X121.923 Y98.579 E0.01988
G1 X124.363 Y97.921 E0.07922
G1 X125.005 Y97.846 E0.02026
G1 X125.694 Y97.935 E0.02180
