; generated by PrusaSlicer 2.2.0+linux-x64 on 2021-05-04 at 20:12:32 UTC

; 

; external perimeters extrusion width = 0.45mm
; perimeters extrusion width = 0.45mm
; infill extrusion width = 0.45mm
; solid infill extrusion width = 0.45mm
; top infill extrusion width = 0.40mm
; first layer extrusion width = 0.42mm

M73 P0 R4
M73 Q0 S4
M201 X1000 Y1000 Z200 E5000 ; sets maximum accelerations, mm/sec^2
M203 X200 Y200 Z12 E120 ; sets maximum feedrates, mm/sec
M204 P1250 R1250 T1250 ; sets acceleration (P, T) and retract acceleration (R), mm/sec^2
M205 X8.00 Y8.00 Z0.40 E4.50 ; sets the jerk limits, mm/sec
M205 S0 T0 ; sets the minimum extruding and travel feed rate, mm/sec
M107
M862.3 P "MK3S" ; printer model check
M862.1 P0.4 ; nozzle diameter check
M115 U3.9.3 ; tell printer latest fw version
G90 ; use absolute coordinates
M83 ; extruder relative mode
M104 S215 ; set extruder temp
M140 S60 ; set bed temp
M190 S60 ; wait for bed temp
M109 S215 ; wait for extruder temp
G28 W ; home all without mesh bed level
G80 ; mesh bed leveling
G1 Y-3.0 F1000.0 ; go outside print area
G92 E0.0
G1 X60.0 E9.0 F1000.0 ; intro line
M73 Q1 S4
M73 P1 R4
G1 X100.0 E12.5 F1000.0 ; intro line
G92 E0.0
M221 S95

; Don't change E values below. Excessive value can damage the printer.
M907 E430 ; set extruder motor current
G21 ; set units to millimeters
G90 ; use absolute coordinates
M83 ; use relative distances for extrusion
M900 K0.05 ; Filament gcode LA 1.5
M900 K30 ; Filament gcode LA 1.0
;BEFORE_LAYER_CHANGE
G92 E0.0
;0.2


G1 E-0.80000 F2100.00000
G1 Z0.400 F10800.000
;AFTER_LAYER_CHANGE
;0.2
G1 X118.782 Y101.024
G1 Z0.200
G1 E0.80000 F2100.00000
M204 S1000
G1 F1075
G1 X119.227 Y100.306 E0.02651
G1 X120.158 Y99.357 E0.04168
G1 X120.683 Y98.959 E0.02066
G1 X121.285 Y98.679 E0.02080
G1 X122.966 Y98.277 E0.05421
G1 X126.804 Y98.269 E0.12034
G1 X127.430 Y98.333 E0.01970
G1 X128.557 Y98.629 E0.03655
G1 X129.383 Y99.001 E0.02841
G1 X129.829 Y99.345 E0.01766
G1 X130.699 Y100.219 E0.03867
G1 X131.253 Y101.105 E0.03274
G1 X131.720 Y102.940 E0.05939
G1 X131.731 Y106.813 E0.12144
G1 X131.647 Y107.523 E0.02243
G1 X131.218 Y108.976 E0.04747
G1 X130.711 Y109.767 E0.02950
G1 X129.525 Y110.904 E0.05150
G1 X128.781 Y111.297 E0.02637
G1 X127.475 Y111.658 E0.04250
G1 X126.846 Y111.731 E0.01984
G1 X122.986 Y111.724 E0.12103
G1 X122.417 Y111.632 E0.01807
G1 X121.024 Y111.219 E0.04555
G1 X120.233 Y110.711 E0.02950
G1 X119.096 Y109.525 E0.05150
G1 X118.703 Y108.781 E0.02637
G1 X118.342 Y107.475 E0.04250
G1 X118.269 Y106.846 E0.01984
G1 X118.276 Y102.986 E0.12103
G1 X118.368 Y102.417 E0.01807
G1 X118.764 Y101.082 E0.04367
G1 X119.143 Y101.141 F10800.000
G1 F1075
G1 X119.539 Y100.521 E0.02307
G1 X120.435 Y99.614 E0.03997
G1 X120.909 Y99.264 E0.01848
G1 X121.447 Y99.022 E0.01848
G1 X123.008 Y98.653 E0.05031
G1 X126.804 Y98.646 E0.11902
G1 X127.366 Y98.705 E0.01771
G1 X128.452 Y98.992 E0.03524
G1 X129.186 Y99.322 E0.02523
G1 X130.424 Y100.478 E0.05310
G1 X130.919 Y101.285 E0.02968
G1 X131.346 Y102.983 E0.05491
G1 X131.354 Y106.825 E0.12044
G1 X131.275 Y107.454 E0.01988
G1 X130.857 Y108.859 E0.04598
G1 X130.407 Y109.541 E0.02562
G1 X129.274 Y110.619 E0.04904
G1 X128.619 Y110.955 E0.02307
G1 X127.353 Y111.298 E0.04112
G1 X126.832 Y111.354 E0.01643
G1 X123.003 Y111.347 E0.12005
G1 X121.141 Y110.857 E0.06039
G1 X120.459 Y110.407 E0.02562
G1 X119.381 Y109.274 E0.04904
G1 X119.045 Y108.619 E0.02307
G1 X118.702 Y107.353 E0.04112
G1 X118.646 Y106.832 E0.01643
G1 X118.653 Y103.003 E0.12005
G1 X119.128 Y101.199 E0.05851
G1 X119.500 Y101.268 F10800.000
G1 F1075
G1 X119.847 Y100.741 E0.01977
G1 X120.708 Y99.876 E0.03826
G1 X121.127 Y99.574 E0.01621
G1 X121.601 Y99.369 E0.01621
G1 X123.042 Y99.028 E0.04643
G1 X126.804 Y99.023 E0.11793
G1 X127.299 Y99.076 E0.01562
G1 X128.348 Y99.354 E0.03404
G1 X128.988 Y99.643 E0.02201
G1 X130.144 Y100.730 E0.04975
G1 X130.580 Y101.454 E0.02649
G1 X130.971 Y103.023 E0.05072
G1 X130.977 Y106.827 E0.11925
G1 X130.906 Y107.377 E0.01740
G1 X130.500 Y108.732 E0.04436
G1 X130.108 Y109.310 E0.02190
G1 X129.032 Y110.328 E0.04643
G1 X128.464 Y110.610 E0.01989
G1 X127.248 Y110.934 E0.03945
G1 X123.029 Y110.971 E0.13230
G1 X121.268 Y110.500 E0.05716
G1 X120.690 Y110.108 E0.02190
G1 X119.672 Y109.032 E0.04643
G1 X119.390 Y108.464 E0.01989
G1 X119.066 Y107.248 E0.03945
G1 X119.029 Y103.029 E0.13230
G1 X119.484 Y101.326 E0.05528
; printing object go-Cube.stl id:0 copy 0
G1 F8640.000
G1 X119.847 Y100.741 E-0.15878
G1 X120.708 Y99.876 E-0.28173
G1 X121.127 Y99.574 E-0.11938
G1 X121.601 Y99.369 E-0.11938
G1 X121.942 Y99.289 E-0.08074
G1 E-0.04000 F2100.00000
G1 Z0.600 F10800.000
G1 X122.347 Y102.707
G1 Z0.200
G1 E0.80000 F2100.00000
G1 F1075
G1 X122.707 Y102.347 E0.01599
G1 X123.303 Y102.187 E0.01934
G1 X126.716 Y102.192 E0.10699
G1 X127.293 Y102.347 E0.01873
G1 X127.653 Y102.707 E0.01599
G1 X127.813 Y103.304 E0.01935
G1 X127.813 Y106.696 E0.10638
G1 X127.653 Y107.293 E0.01935
G1 X127.293 Y107.653 E0.01599
G1 X126.696 Y107.813 E0.01935
G1 X123.304 Y107.813 E0.10638
G1 X122.707 Y107.653 E0.01935
G1 X122.347 Y107.293 E0.01599
G1 X122.187 Y106.696 E0.01935
G1 X122.187 Y103.304 E0.10638
G1 X122.331 Y102.765 E0.01747
G1 X122.009 Y102.512 F10800.000
G1 F1075
G1 X122.512 Y102.009 E0.02233
G1 X123.254 Y101.810 E0.02407
G1 X126.765 Y101.815 E0.11010
G1 X127.488 Y102.009 E0.02345
G1 X127.991 Y102.512 E0.02233
G1 X128.190 Y103.254 E0.02408
G1 X128.190 Y106.746 E0.10949
G1 X127.991 Y107.488 E0.02408
G1 X127.488 Y107.991 E0.02233
G1 X126.746 Y108.190 E0.02408
G1 X123.254 Y108.190 E0.10949
G1 X122.512 Y107.991 E0.02408
G1 X122.009 Y107.488 E0.02233
G1 X121.810 Y106.746 E0.02408
G1 X121.810 Y103.254 E0.10949
G1 X121.993 Y102.570 E0.02220
G1 X122.409 Y102.518 F10800.000
G1 F8640.000
G1 X122.512 Y102.009 E-0.17654
G1 X123.254 Y101.810 E-0.17728
G1 X125.013 Y101.813 E-0.40618
G1 E-0.04000 F2100.00000
G1 Z0.600 F10800.000
G1 X127.640 Y103.095
G1 Z0.200
G1 E0.80000 F2100.00000
G1 F1075
G1 X127.145 Y102.600 E0.02200
G1 X126.678 Y102.475 E0.01520
G1 X126.485 Y102.475 E0.00607
G1 X127.530 Y103.520 E0.04647
G1 X127.530 Y104.055 E0.01681
G1 X125.949 Y102.474 E0.07028
G1 X125.414 Y102.473 E0.01684
G1 X127.530 Y104.589 E0.09409
G1 X127.530 Y105.124 E0.01681
G1 X124.878 Y102.472 E0.11790
G1 X124.343 Y102.472 E0.01684
G1 X127.530 Y105.659 E0.14171
G1 X127.530 Y106.193 E0.01681
G1 X123.807 Y102.471 E0.16552
G1 X123.340 Y102.470 E0.01469
G1 X123.286 Y102.484 E0.00175
G1 X127.516 Y106.714 E0.18803
G1 X127.403 Y107.135 E0.01373
G1 X122.854 Y102.600 E0.20194
G1 X122.597 Y102.865 E0.01158
G1 X127.135 Y107.403 E0.20176
G1 X126.713 Y107.516 E0.01373
G1 X122.484 Y103.287 E0.18803
G1 X122.470 Y103.341 E0.00177
G1 X122.470 Y103.807 E0.01465
G1 X126.193 Y107.530 E0.16555
G1 X125.659 Y107.530 E0.01681
G1 X122.470 Y104.341 E0.14177
G1 X122.470 Y104.876 E0.01681
G1 X125.124 Y107.530 E0.11800
G1 X124.589 Y107.530 E0.01681
G1 X122.470 Y105.411 E0.09423
G1 X122.470 Y105.946 E0.01681
G1 X124.054 Y107.530 E0.07045
G1 X123.520 Y107.530 E0.01681
G1 X122.470 Y106.480 E0.04668
G1 X122.470 Y106.659 E0.00562
G1 X122.600 Y107.145 E0.01582
G1 X123.095 Y107.640 E0.02199
; stop printing object go-Cube.stl id:0 copy 0
M106 S255
;BEFORE_LAYER_CHANGE
G92 E0.0
;0.4


G1 F8640.000
G1 X122.600 Y107.145 E-0.16149
G1 X122.470 Y106.659 E-0.11621
G1 X122.470 Y106.480 E-0.04129
G1 X123.520 Y107.530 E-0.34281
G1 X123.945 Y107.530 E-0.09819
G1 E-0.04000 F2100.00000
G1 Z0.600 F10800.000
;AFTER_LAYER_CHANGE
;0.4
M104 S210 ; set temperature
G1 X121.024 Y111.219
G1 Z0.400
G1 E0.80000 F2100.00000
G1 F1024
G1 X120.233 Y110.711 E0.02950
G1 X119.096 Y109.525 E0.05150
G1 X118.703 Y108.781 E0.02637
G1 X118.342 Y107.475 E0.04250
G1 X118.269 Y106.846 E0.01984
G1 X118.276 Y102.986 E0.12103
G1 X118.368 Y102.417 E0.01807
G1 X118.782 Y101.024 E0.04555
G1 X119.227 Y100.306 E0.02651
G1 X120.158 Y99.357 E0.04168
G1 X120.683 Y98.959 E0.02066
G1 X121.285 Y98.679 E0.02080
G1 X122.966 Y98.277 E0.05421
G1 X126.804 Y98.269 E0.12034
G1 X127.430 Y98.333 E0.01970
G1 X128.557 Y98.629 E0.03655
G1 X129.383 Y99.001 E0.02841
G1 X129.829 Y99.345 E0.01766
G1 X130.699 Y100.219 E0.03867
G1 X131.253 Y101.105 E0.03274
G1 X131.720 Y102.940 E0.05939
G1 X131.731 Y106.813 E0.12144
G1 X131.647 Y107.523 E0.02243
G1 X131.218 Y108.976 E0.04747
G1 X130.711 Y109.767 E0.02950
G1 X129.525 Y110.904 E0.05150
G1 X128.781 Y111.297 E0.02637
G1 X127.475 Y111.658 E0.04250
G1 X126.846 Y111.731 E0.01984
G1 X122.986 Y111.724 E0.12103
G1 X122.417 Y111.632 E0.01807
G1 X121.082 Y111.236 E0.04367
G1 X121.141 Y110.857 F10800.000
G1 F1024
G1 X120.459 Y110.407 E0.02562
G1 X119.381 Y109.274 E0.04904
G1 X119.045 Y108.619 E0.02307
G1 X118.702 Y107.353 E0.04112
G1 X118.646 Y106.832 E0.01643
G1 X118.653 Y103.003 E0.12005
G1 X119.143 Y101.141 E0.06039
G1 X119.539 Y100.521 E0.02307
G1 X120.435 Y99.614 E0.03997
G1 X120.909 Y99.264 E0.01848
G1 X121.447 Y99.022 E0.01848
G1 X123.008 Y98.653 E0.05031
G1 X126.804 Y98.646 E0.11902
G1 X127.366 Y98.705 E0.01771
G1 X128.452 Y98.992 E0.03524
G1 X129.186 Y99.322 E0.02523
G1 X130.424 Y100.478 E0.05310
G1 X130.919 Y101.285 E0.02968
G1 X131.346 Y102.983 E0.05491
G1 X131.354 Y106.825 E0.12044
G1 X131.275 Y107.454 E0.01988
G1 X130.857 Y108.859 E0.04598
G1 X130.407 Y109.541 E0.02562
G1 X129.274 Y110.619 E0.04904
G1 X128.619 Y110.955 E0.02307
G1 X127.353 Y111.298 E0.04112
G1 X126.832 Y111.354 E0.01643
G1 X123.003 Y111.347 E0.12005
G1 X121.199 Y110.872 E0.05851
G1 X121.268 Y110.500 F10800.000
G1 F1024
G1 X120.690 Y110.108 E0.02190
G1 X119.672 Y109.032 E0.04643
G1 X119.390 Y108.464 E0.01989
G1 X119.066 Y107.248 E0.03945
G1 X119.029 Y103.029 E0.13230
G1 X119.500 Y101.268 E0.05716
G1 X119.847 Y100.741 E0.01977
G1 X120.708 Y99.876 E0.03826
G1 X121.127 Y99.574 E0.01621
G1 X121.601 Y99.369 E0.01621
G1 X123.042 Y99.028 E0.04643
G1 X126.804 Y99.023 E0.11793
G1 X127.299 Y99.076 E0.01562
G1 X128.348 Y99.354 E0.03404
G1 X128.988 Y99.643 E0.02201
G1 X130.144 Y100.730 E0.04975
G1 X130.580 Y101.454 E0.02649
G1 X130.971 Y103.023 E0.05072
G1 X130.977 Y106.827 E0.11925
G1 X130.906 Y107.377 E0.01740
G1 X130.500 Y108.732 E0.04436
G1 X130.108 Y109.310 E0.02190
G1 X129.032 Y110.328 E0.04643
G1 X128.464 Y110.610 E0.01989
G1 X127.248 Y110.934 E0.03945
G1 X123.029 Y110.971 E0.13230
G1 X121.326 Y110.516 E0.05528
; printing object go-Cube.stl id:0 copy 0
G1 F8640.000
G1 X120.690 Y110.108 E-0.17439
G1 X119.672 Y109.032 E-0.34195
G1 X119.390 Y108.464 E-0.14644
G1 X119.282 Y108.057 E-0.09722
G1 E-0.04000 F2100.00000
G1 Z0.800 F10800.000
G1 X122.627 Y107.792
G1 Z0.400
G1 E0.80000 F2100.00000
M204 S800
G1 F1024
G1 X122.208 Y107.373 E0.02007
G1 X122.032 Y106.717 E0.02299
G1 X122.032 Y103.283 E0.11622
G1 X122.208 Y102.627 E0.02299
G1 X122.627 Y102.208 E0.02007
G1 X123.283 Y102.032 E0.02299
G1 X126.717 Y102.032 E0.11622
G1 X127.373 Y102.208 E0.02299
G1 X127.792 Y102.627 E0.02007
G1 X127.968 Y103.283 E0.02299
G1 X127.968 Y106.717 E0.11622
G1 X127.792 Y107.373 E0.02299
G1 X127.373 Y107.792 E0.02007
G1 X126.717 Y107.968 E0.02299
G1 X123.283 Y107.968 E0.11622
G1 X122.685 Y107.808 E0.02096
M204 S1000
G1 X122.416 Y108.157 F10800.000
M204 S800
G1 F1024
G1 X121.843 Y107.584 E0.02746
G1 X121.625 Y106.770 E0.02850
G1 X121.625 Y103.230 E0.11985
G1 X121.843 Y102.416 E0.02850
G1 X122.416 Y101.843 E0.02746
G1 X123.230 Y101.625 E0.02850
G1 X126.770 Y101.625 E0.11985
G1 X127.584 Y101.843 E0.02850
G1 X128.157 Y102.416 E0.02746
G1 X128.375 Y103.230 E0.02850
G1 X128.375 Y106.770 E0.11985
G1 X128.157 Y107.584 E0.02850
G1 X127.584 Y108.157 E0.02746
G1 X126.770 Y108.375 E0.02850
G1 X123.230 Y108.375 E0.11985
G1 X122.474 Y108.173 E0.02646
M204 S1000
G1 X122.423 Y107.757 F10800.000
G1 F8640.000
G1 X121.843 Y107.584 E-0.19942
G1 X121.625 Y106.770 E-0.19438
G1 X121.625 Y105.184 E-0.36620
G1 E-0.04000 F2100.00000
G1 Z0.800 F10800.000
G1 X123.054 Y102.220
G1 Z0.400
G1 E0.80000 F2100.00000
G1 F1024
G1 X122.479 Y102.795 E0.02827
G1 X122.337 Y103.323 E0.01899
G1 X122.337 Y103.528 E0.00709
G1 X123.528 Y102.337 E0.05846
G1 X124.118 Y102.337 E0.02052
G1 X122.337 Y104.118 E0.08747
G1 X122.337 Y104.709 E0.02052
G1 X124.709 Y102.337 E0.11649
G1 X125.300 Y102.337 E0.02052
G1 X122.337 Y105.300 E0.14550
G1 X122.337 Y105.890 E0.02052
G1 X125.890 Y102.337 E0.17452
G1 X126.481 Y102.337 E0.02052
G1 X122.337 Y106.481 E0.20353
G1 X122.337 Y106.677 E0.00679
G1 X122.421 Y106.988 E0.01121
G1 X126.988 Y102.421 E0.22434
G1 X127.215 Y102.482 E0.00814
G1 X127.367 Y102.633 E0.00746
G1 X122.633 Y107.367 E0.23248
G1 X122.785 Y107.518 E0.00746
G1 X123.012 Y107.579 E0.00814
G1 X127.579 Y103.012 E0.22434
G1 X127.663 Y103.323 E0.01121
G1 X127.663 Y103.519 E0.00678
G1 X123.519 Y107.663 E0.20354
G1 X124.109 Y107.663 E0.02052
G1 X127.663 Y104.109 E0.17452
G1 X127.663 Y104.700 E0.02052
G1 X124.700 Y107.663 E0.14551
G1 X125.291 Y107.663 E0.02052
G1 X127.663 Y105.291 E0.11649
G1 X127.663 Y105.882 E0.02052
G1 X125.882 Y107.663 E0.08748
G1 X126.472 Y107.663 E0.02052
G1 X127.663 Y106.472 E0.05847
G1 X127.663 Y106.677 E0.00710
G1 X127.521 Y107.204 E0.01898
G1 X126.945 Y107.780 E0.02828
; stop printing object go-Cube.stl id:0 copy 0
;BEFORE_LAYER_CHANGE
G92 E0.0
;0.6


G1 F8640.000
G1 X127.521 Y107.204 E-0.18803
G1 X127.663 Y106.677 E-0.12618
G1 X127.663 Y106.472 E-0.04718
G1 X126.472 Y107.663 E-0.38870
G1 X126.429 Y107.663 E-0.00992
G1 E-0.04000 F2100.00000
G1 Z0.800 F10800.000
;AFTER_LAYER_CHANGE
;0.6
G1 X129.525 Y110.904
G1 Z0.600
G1 E0.80000 F2100.00000
G1 F1024
G1 X128.781 Y111.297 E0.02637
G1 X127.475 Y111.658 E0.04250
G1 X126.846 Y111.731 E0.01984
G1 X122.986 Y111.724 E0.12103
G1 X122.417 Y111.632 E0.01807
G1 X121.024 Y111.219 E0.04555
G1 X120.233 Y110.711 E0.02950
G1 X119.096 Y109.525 E0.05150
G1 X118.703 Y108.781 E0.02637
G1 X118.342 Y107.475 E0.04250
G1 X118.269 Y106.846 E0.01984
G1 X118.276 Y102.986 E0.12103
G1 X118.368 Y102.417 E0.01807
G1 X118.782 Y101.024 E0.04555
G1 X119.227 Y100.306 E0.02651
G1 X120.158 Y99.357 E0.04168
G1 X120.683 Y98.959 E0.02066
G1 X121.285 Y98.679 E0.02080
G1 X122.966 Y98.277 E0.05421
G1 X126.804 Y98.269 E0.12034
G1 X127.430 Y98.333 E0.01970
G1 X128.557 Y98.629 E0.03655
G1 X129.383 Y99.001 E0.02841
G1 X129.829 Y99.345 E0.01766
G1 X130.699 Y100.219 E0.03867
G1 X131.253 Y101.105 E0.03274
G1 X131.720 Y102.940 E0.05939
G1 X131.731 Y106.813 E0.12144
G1 X131.647 Y107.523 E0.02243
G1 X131.218 Y108.976 E0.04747
G1 X130.711 Y109.767 E0.02950
G1 X129.568 Y110.862 E0.04962
G1 X129.274 Y110.619 F10800.000
G1 F1024
G1 X128.619 Y110.955 E0.02307
G1 X127.353 Y111.298 E0.04112
G1 X126.832 Y111.354 E0.01643
G1 X123.003 Y111.347 E0.12005
G1 X121.141 Y110.857 E0.06039
G1 X120.459 Y110.407 E0.02562
G1 X119.381 Y109.274 E0.04904
G1 X119.045 Y108.619 E0.02307
G1 X118.702 Y107.353 E0.04112
G1 X118.646 Y106.832 E0.01643
G1 X118.653 Y103.003 E0.12005
G1 X119.143 Y101.141 E0.06039
G1 X119.539 Y100.521 E0.02307
G1 X120.435 Y99.614 E0.03997
G1 X120.909 Y99.264 E0.01848
G1 X121.447 Y99.022 E0.01848
G1 X123.008 Y98.653 E0.05031
G1 X126.804 Y98.646 E0.11902
G1 X127.366 Y98.705 E0.01771
G1 X128.452 Y98.992 E0.03524
G1 X129.186 Y99.322 E0.02523
G1 X130.424 Y100.478 E0.05310
G1 X130.919 Y101.285 E0.02968
G1 X131.346 Y102.983 E0.05491
G1 X131.354 Y106.825 E0.12044
G1 X131.275 Y107.454 E0.01988
G1 X130.857 Y108.859 E0.04598
G1 X130.407 Y109.541 E0.02562
G1 X129.317 Y110.578 E0.04716
G1 X129.032 Y110.328 F10800.000
G1 F1024
G1 X128.464 Y110.610 E0.01989
G1 X127.248 Y110.934 E0.03945
G1 X123.029 Y110.971 E0.13230
G1 X121.268 Y110.500 E0.05716
G1 X120.690 Y110.108 E0.02190
G1 X119.672 Y109.032 E0.04643
G1 X119.390 Y108.464 E0.01989
G1 X119.066 Y107.248 E0.03945
G1 X119.029 Y103.029 E0.13230
G1 X119.500 Y101.268 E0.05716
G1 X119.847 Y100.741 E0.01977
G1 X120.708 Y99.876 E0.03826
G1 X121.127 Y99.574 E0.01621
G1 X121.601 Y99.369 E0.01621
G1 X123.042 Y99.028 E0.04643
G1 X126.804 Y99.023 E0.11793
G1 X127.299 Y99.076 E0.01562
G1 X128.348 Y99.354 E0.03404
G1 X128.988 Y99.643 E0.02201
G1 X130.144 Y100.730 E0.04975
G1 X130.580 Y101.454 E0.02649
G1 X130.971 Y103.023 E0.05072
G1 X130.977 Y106.827 E0.11925
G1 X130.906 Y107.377 E0.01740
G1 X130.500 Y108.732 E0.04436
