; generated by PrusaSlicer 2.3.1+linux-x64 on 2021-05-13 at 12:40:09 UTC

; 

; external perimeters extrusion width = 0.45mm
; perimeters extrusion width = 0.45mm
; infill extrusion width = 0.45mm
; solid infill extrusion width = 0.45mm
; top infill extrusion width = 0.40mm
; support material extrusion width = 0.35mm
; first layer extrusion width = 0.42mm

M73 P0 R189
M73 Q0 S190
M201 X1000 Y1000 Z200 E5000 ; sets maximum accelerations, mm/sec^2
M203 X200 Y200 Z12 E120 ; sets maximum feedrates, mm/sec
M204 P1250 R1250 T1250 ; sets acceleration (P, T) and retract acceleration (R), mm/sec^2
M205 X8.00 Y8.00 Z0.40 E4.50 ; sets the jerk limits, mm/sec
M205 S0 T0 ; sets the minimum extruding and travel feed rate, mm/sec
M107
;TYPE:Custom
M862.3 P "MK3S" ; printer model check
M862.1 P0.4 ; nozzle diameter check
M115 U3.9.2 ; tell printer latest fw version
G90 ; use absolute coordinates
M83 ; extruder relative mode
M104 S215 ; set extruder temp
M140 S60 ; set bed temp
M190 S60 ; wait for bed temp
M109 S215 ; wait for extruder temp
G28 W ; home all without mesh bed level
G80 ; mesh bed leveling
G1 Y-3.0 F1000.0 ; go outside print area
G92 E0.0
G1 X60.0 E9.0 F1000.0 ; intro line
M73 P0 R188
G1 X100.0 E12.5 F1000.0 ; intro line
G92 E0.0
M221 S95

; Don't change E values below. Excessive value can damage the printer.
M907 E430 ; set extruder motor current
G21 ; set units to millimeters
G90 ; use absolute coordinates
M83 ; use relative distances for extrusion
M900 K0.05 ; Filament gcode LA 1.5
M900 K30 ; Filament gcode LA 1.0
;LAYER_CHANGE
;Z:0.2
;HEIGHT:0.2
;BEFORE_LAYER_CHANGE
G92 E0.0
;0.2


G1 E-0.80000 F2100.000
G1 Z0.400 F10800.000
;AFTER_LAYER_CHANGE
;0.2
G1 X76.389 Y54.303
G1 Z0.200
G1 E0.80000 F2100.000
M204 S1000
;TYPE:Skirt
;WIDTH:0.42
G1 F1200.000
G1 X78.385 Y53.704 E0.06533
G1 X78.938 Y53.625 E0.01752
G1 X171.004 Y53.623 E2.88666
G1 X171.540 Y53.685 E0.01692
G1 X173.247 Y54.145 E0.05542
G1 X173.700 Y54.350 E0.01562
G1 X174.102 Y54.645 E0.01562
G1 X175.335 Y55.877 E0.05463
G1 X175.656 Y56.310 E0.01692
G1 X175.871 Y56.805 E0.01692
G1 X176.318 Y58.474 E0.05416
G1 X180.920 Y97.320 E1.22652
G1 X180.911 Y112.981 E0.49103
G1 X176.356 Y151.318 E1.21050
G1 X175.831 Y153.315 E0.06473
G1 X175.334 Y154.124 E0.02977
G1 X174.104 Y155.353 E0.05451
G1 X173.603 Y155.704 E0.01917
G1 X171.600 Y156.300 E0.06551
G1 X171.028 Y156.377 E0.01811
G1 X78.973 Y156.377 E2.88631
G1 X78.456 Y156.314 E0.01633
G1 X76.743 Y155.851 E0.05566
G1 X76.283 Y155.640 E0.01585
G1 X75.876 Y155.334 E0.01597
G1 X74.551 Y153.991 E0.05916
G1 X74.114 Y153.144 E0.02989
G1 X73.685 Y151.538 E0.05210
G1 X69.136 Y131.730 E0.63724
G1 X69.078 Y131.235 E0.01562
G1 X69.084 Y69.561 E1.93376
G1 X69.244 Y68.862 E0.02249
G1 X74.201 Y56.602 E0.41463
G1 X74.665 Y55.878 E0.02696
G1 X75.892 Y54.652 E0.05438
G1 X76.340 Y54.337 E0.01718
; printing object top-Cube.stl id:0 copy 0
;WIPE_START
G1 F8640.000
G1 X78.385 Y53.704 E-0.49429
G1 X78.938 Y53.625 E-0.12899
G1 X79.530 Y53.625 E-0.13672
;WIPE_END
G1 E-0.04000 F2100.000
G1 Z0.600 F10800.000
G1 X75.226 Y131.205
G1 Z0.200
G1 E0.80000 F2100.000
;TYPE:Support material
G1 F1200.000
G1 X75.226 Y69.736 E1.92733
G1 X74.471 Y69.736 E0.02365
G1 X74.471 Y131.036 E1.92201
G1 X73.717 Y131.036 E0.02365
G1 X73.717 Y69.736 E1.92201
G1 X72.963 Y69.736 E0.02365
G1 X72.963 Y131.036 E1.92201
G1 X72.209 Y131.036 E0.02365
G1 X72.209 Y69.736 E1.92201
M73 Q0 S189
G1 X71.455 Y69.736 E0.02365
G1 X71.455 Y131.205 E1.92733
;WIPE_START
G1 F8640.000
G1 X71.455 Y127.914 E-0.76000
;WIPE_END
G1 E-0.04000 F2100.000
G1 Z0.600 F10800.000
G1 X174.774 Y112.749
G1 Z0.200
G1 E0.80000 F2100.000
G1 F1200.000
G1 X174.774 Y97.421 E0.48059
G1 X175.529 Y97.421 E0.02365
G1 X175.529 Y112.579 E0.47527
G1 X176.283 Y112.579 E0.02365
G1 X176.283 Y97.421 E0.47527
G1 X177.037 Y97.421 E0.02365
G1 X177.037 Y112.579 E0.47527
G1 X177.791 Y112.579 E0.02365
G1 X177.791 Y97.421 E0.47527
G1 X178.545 Y97.421 E0.02365
G1 X178.545 Y112.749 E0.48059
;WIPE_START
G1 F8640.000
G1 X178.545 Y109.457 E-0.76000
;WIPE_END
G1 E-0.04000 F2100.000
G1 Z0.600 F10800.000
G1 X137.815 Y121.000
G1 Z0.200
G1 E0.80000 F2100.000
;TYPE:Perimeter
G1 F1200.000
G1 X137.304 Y122.907 E0.06192
G1 X135.907 Y124.304 E0.06192
G1 X134.000 Y124.815 E0.06192
G1 X132.093 Y124.304 E0.06192
G1 X130.696 Y122.907 E0.06192
G1 X130.185 Y121.000 E0.06192
G1 X130.696 Y119.093 E0.06192
G1 X132.093 Y117.696 E0.06192
G1 X134.000 Y117.185 E0.06192
G1 X135.907 Y117.696 E0.06192
G1 X137.304 Y119.093 E0.06192
G1 X137.799 Y120.942 E0.06003
G1 X137.424 Y121.000 F10800.000
;TYPE:External perimeter
G1 F1200.000
G1 X136.966 Y122.712 E0.05558
G1 X135.712 Y123.966 E0.05558
G1 X134.000 Y124.424 E0.05558
G1 X132.288 Y123.966 E0.05558
G1 X131.034 Y122.712 E0.05558
G1 X130.576 Y121.000 E0.05558
G1 X131.034 Y119.288 E0.05558
G1 X132.288 Y118.034 E0.05558
G1 X134.000 Y117.576 E0.05558
G1 X135.712 Y118.034 E0.05558
G1 X136.966 Y119.288 E0.05558
G1 X137.409 Y120.942 E0.05370
G1 X137.771 Y121.200 F10800.000
;WIPE_START
G1 F8640.000
G1 X136.966 Y122.712 E-0.42136
G1 X135.929 Y123.749 E-0.33864
;WIPE_END
G1 E-0.04000 F2100.000
G1 Z0.600 F10800.000
G1 X137.244 Y115.546
G1 Z0.200
G1 E0.80000 F2100.000
;TYPE:Perimeter
G1 F1200.000
G1 X136.536 Y116.255 E0.03140
G1 X135.672 Y116.486 E0.02804
G1 X115.305 Y116.486 E0.63860
G1 X114.441 Y116.255 E0.02804
G1 X113.733 Y115.546 E0.03140
G1 X113.501 Y114.683 E0.02804
G1 X113.501 Y94.315 E0.63860
G1 X113.733 Y93.452 E0.02804
G1 X114.441 Y92.743 E0.03140
G1 X115.305 Y92.512 E0.02804
G1 X135.672 Y92.512 E0.63860
G1 X136.536 Y92.743 E0.02804
G1 X137.244 Y93.452 E0.03140
G1 X137.475 Y94.315 E0.02804
G1 X137.475 Y114.683 E0.63860
G1 X137.260 Y115.489 E0.02616
G1 X136.906 Y115.351 F10800.000
;TYPE:External perimeter
G1 F1200.000
G1 X136.341 Y115.917 E0.02507
G1 X135.622 Y116.109 E0.02331
G1 X115.354 Y116.109 E0.63549
G1 X114.636 Y115.917 E0.02331
G1 X114.071 Y115.351 E0.02507
G1 X113.878 Y114.633 E0.02331
G1 X113.878 Y94.365 E0.63549
G1 X114.071 Y93.647 E0.02331
G1 X114.636 Y93.082 E0.02507
G1 X115.354 Y92.889 E0.02331
G1 X135.622 Y92.889 E0.63549
M73 P0 R187
G1 X136.341 Y93.082 E0.02331
G1 X136.906 Y93.647 E0.02507
G1 X137.098 Y94.365 E0.02331
G1 X137.098 Y114.633 E0.63549
G1 X136.921 Y115.293 E0.02143
G1 X137.105 Y115.698 F10800.000
;WIPE_START
G1 F8640.000
G1 X136.341 Y115.917 E-0.19672
G1 X135.622 Y116.109 E-0.17170
G1 X133.926 Y116.109 E-0.39158
;WIPE_END
G1 E-0.04000 F2100.000
G1 Z0.600 F10800.000
G1 X172.892 Y152.093
G1 Z0.200
G1 E0.80000 F2100.000
;TYPE:Perimeter
G1 F1200.000
G1 X172.093 Y152.892 E0.03547
G1 X170.896 Y153.213 E0.03883
G1 X79.104 Y153.213 E2.87810
G1 X77.907 Y152.892 E0.03883
G1 X77.108 Y152.093 E0.03547
G1 X76.787 Y150.896 E0.03883
G1 X76.787 Y59.104 E2.87810
G1 X77.108 Y57.907 E0.03883
G1 X77.907 Y57.108 E0.03547
G1 X79.104 Y56.787 E0.03883
G1 X170.896 Y56.787 E2.87810
G1 X172.093 Y57.108 E0.03883
G1 X172.892 Y57.907 E0.03547
G1 X173.213 Y59.104 E0.03883
G1 X173.213 Y150.896 E2.87810
G1 X172.908 Y152.035 E0.03695
G1 X173.230 Y152.288 F10800.000
;TYPE:External perimeter
G1 F1200.000
G1 X172.288 Y153.230 E0.04180
G1 X170.946 Y153.590 E0.04355
G1 X79.054 Y153.590 E2.88121
G1 X77.712 Y153.230 E0.04355
G1 X76.770 Y152.288 E0.04180
G1 X76.410 Y150.946 E0.04355
G1 X76.410 Y59.054 E2.88121
G1 X76.770 Y57.712 E0.04355
G1 X77.712 Y56.770 E0.04180
G1 X79.054 Y56.410 E0.04355
G1 X170.946 Y56.410 E2.88121
G1 X172.288 Y56.770 E0.04355
G1 X173.230 Y57.712 E0.04180
G1 X173.590 Y59.054 E0.04355
G1 X173.590 Y150.946 E2.88121
M73 Q0 S188
G1 X173.246 Y152.230 E0.04167
G1 X172.830 Y152.287 F10800.000
;WIPE_START
G1 F8640.000
G1 X172.288 Y153.230 E-0.31991
G1 X170.946 Y153.590 E-0.32074
G1 X170.429 Y153.590 E-0.11934
;WIPE_END
G1 E-0.04000 F2100.000
G1 Z0.600 F10800.000
G1 X171.705 Y57.121
G1 Z0.200
G1 E0.80000 F2100.000
;TYPE:Solid infill
;WIDTH:0.42078
G1 F1200.000
G1 X172.639 Y58.055 E0.04149
G1 X172.835 Y58.785 E0.02374
G1 X171.215 Y57.165 E0.07195
G1 X170.859 Y57.070 E0.01159
G1 X170.586 Y57.070 E0.00860
G1 X172.930 Y59.414 E0.10418
G1 X172.930 Y59.949 E0.01679
G1 X170.051 Y57.070 E0.12792
G1 X169.517 Y57.070 E0.01679
G1 X172.930 Y60.483 E0.15167
G1 X172.930 Y61.018 E0.01679
G1 X168.982 Y57.070 E0.17541
G1 X168.448 Y57.070 E0.01679
G1 X172.930 Y61.552 E0.19915
G1 X172.930 Y62.086 E0.01679
G1 X167.914 Y57.070 E0.22290
G1 X167.379 Y57.070 E0.01679
G1 X172.930 Y62.621 E0.24664
G1 X172.930 Y63.155 E0.01679
G1 X166.845 Y57.070 E0.27039
G1 X166.311 Y57.070 E0.01679
G1 X172.930 Y63.689 E0.29413
G1 X172.930 Y64.224 E0.01679
G1 X165.776 Y57.070 E0.31787
G1 X165.242 Y57.070 E0.01679
G1 X172.930 Y64.758 E0.34162
G1 X172.930 Y65.293 E0.01679
G1 X164.707 Y57.070 E0.36536
G1 X164.173 Y57.070 E0.01679
G1 X172.930 Y65.827 E0.38911
G1 X172.930 Y66.361 E0.01679
G1 X163.639 Y57.070 E0.41285
G1 X163.104 Y57.070 E0.01679
G1 X172.930 Y66.896 E0.43660
G1 X172.930 Y67.430 E0.01679
G1 X162.570 Y57.070 E0.46034
M73 P1 R187
M73 Q1 S188
G1 X162.036 Y57.070 E0.01679
G1 X172.930 Y67.964 E0.48408
G1 X172.930 Y68.499 E0.01679
G1 X161.501 Y57.070 E0.50783
G1 X160.967 Y57.070 E0.01679
G1 X172.930 Y69.033 E0.53157
G1 X172.930 Y69.568 E0.01679
G1 X160.432 Y57.070 E0.55532
G1 X159.898 Y57.070 E0.01679
G1 X172.930 Y70.102 E0.57906
G1 X172.930 Y70.636 E0.01679
G1 X159.364 Y57.070 E0.60280
G1 X158.829 Y57.070 E0.01679
G1 X172.930 Y71.171 E0.62655
G1 X172.930 Y71.705 E0.01679
G1 X158.295 Y57.070 E0.65029
G1 X157.761 Y57.070 E0.01679
G1 X172.930 Y72.239 E0.67404
G1 X172.930 Y72.774 E0.01679
G1 X157.226 Y57.070 E0.69778
M73 P1 R186
G1 X156.692 Y57.070 E0.01679
G1 X172.930 Y73.308 E0.72152
G1 X172.930 Y73.843 E0.01679
G1 X156.157 Y57.070 E0.74527
G1 X155.623 Y57.070 E0.01679
G1 X172.930 Y74.377 E0.76901
G1 X172.930 Y74.911 E0.01679
G1 X155.089 Y57.070 E0.79276
G1 X154.554 Y57.070 E0.01679
G1 X172.930 Y75.446 E0.81650
G1 X172.930 Y75.980 E0.01679
G1 X154.020 Y57.070 E0.84024
G1 X153.486 Y57.070 E0.01679
G1 X172.930 Y76.514 E0.86399
G1 X172.930 Y77.049 E0.01679
G1 X152.951 Y57.070 E0.88773
G1 X152.417 Y57.070 E0.01679
G1 X172.930 Y77.583 E0.91148
G1 X172.930 Y78.118 E0.01679
G1 X151.882 Y57.070 E0.93522
G1 X151.348 Y57.070 E0.01679
G1 X172.930 Y78.652 E0.95897
G1 X172.930 Y79.186 E0.01679
G1 X150.814 Y57.070 E0.98271
G1 X150.279 Y57.070 E0.01679
G1 X172.930 Y79.721 E1.00645
G1 X172.930 Y80.255 E0.01679
G1 X149.745 Y57.070 E1.03020
G1 X149.211 Y57.070 E0.01679
G1 X172.930 Y80.789 E1.05394
G1 X172.930 Y81.324 E0.01679
G1 X148.676 Y57.070 E1.07769
G1 X148.142 Y57.070 E0.01679
G1 X172.930 Y81.858 E1.10143
G1 X172.930 Y82.393 E0.01679
G1 X147.607 Y57.070 E1.12517
G1 X147.073 Y57.070 E0.01679
G1 X172.930 Y82.927 E1.14892
G1 X172.930 Y83.461 E0.01679
G1 X146.539 Y57.070 E1.17266
G1 X146.004 Y57.070 E0.01679
G1 X172.930 Y83.996 E1.19641
G1 X172.930 Y84.530 E0.01679
G1 X145.470 Y57.070 E1.22015
G1 X144.936 Y57.070 E0.01679
G1 X172.930 Y85.064 E1.24389
G1 X172.930 Y85.599 E0.01679
G1 X144.401 Y57.070 E1.26764
M73 Q1 S187
G1 X143.867 Y57.070 E0.01679
G1 X172.930 Y86.133 E1.29138
G1 X172.930 Y86.668 E0.01679
G1 X143.332 Y57.070 E1.31513
G1 X142.798 Y57.070 E0.01679
G1 X172.930 Y87.202 E1.33887
G1 X172.930 Y87.736 E0.01679
G1 X142.264 Y57.070 E1.36262
G1 X141.729 Y57.070 E0.01679
G1 X172.930 Y88.271 E1.38636
G1 X172.930 Y88.805 E0.01679
G1 X141.195 Y57.070 E1.41010
G1 X140.661 Y57.070 E0.01679
G1 X172.930 Y89.339 E1.43385
G1 X172.930 Y89.874 E0.01679
G1 X140.126 Y57.070 E1.45759
G1 X139.592 Y57.070 E0.01679
G1 X172.930 Y90.408 E1.48134
G1 X172.930 Y90.943 E0.01679
G1 X139.057 Y57.070 E1.50508
M73 P1 R185
G1 X138.523 Y57.070 E0.01679
G1 X172.930 Y91.477 E1.52882
G1 X172.930 Y92.011 E0.01679
G1 X137.989 Y57.070 E1.55257
G1 X137.454 Y57.070 E0.01679
G1 X172.930 Y92.546 E1.57631
G1 X172.930 Y93.080 E0.01679
G1 X136.920 Y57.070 E1.60006
G1 X136.386 Y57.070 E0.01679
G1 X172.930 Y93.614 E1.62380
G1 X172.930 Y94.149 E0.01679
G1 X135.851 Y57.070 E1.64754
G1 X135.317 Y57.070 E0.01679
G1 X172.930 Y94.683 E1.67129
G1 X172.930 Y95.218 E0.01679
G1 X134.782 Y57.070 E1.69503
G1 X134.248 Y57.070 E0.01679
G1 X172.930 Y95.752 E1.71878
G1 X172.930 Y96.286 E0.01679
G1 X133.714 Y57.070 E1.74252
G1 X133.179 Y57.070 E0.01679
G1 X172.930 Y96.821 E1.76627
G1 X172.930 Y97.355 E0.01679
G1 X132.645 Y57.070 E1.79001
G1 X132.111 Y57.070 E0.01679
G1 X172.930 Y97.889 E1.81375
G1 X172.930 Y98.424 E0.01679
G1 X131.576 Y57.070 E1.83750
M73 Q1 S186
G1 X131.042 Y57.070 E0.01679
G1 X172.930 Y98.958 E1.86124
G1 X172.930 Y99.493 E0.01679
G1 X130.507 Y57.070 E1.88499
M73 P2 R185
M73 Q2 S186
G1 X129.973 Y57.070 E0.01679
G1 X172.930 Y100.027 E1.90873
G1 X172.930 Y100.561 E0.01679
G1 X129.439 Y57.070 E1.93247
G1 X128.904 Y57.070 E0.01679
G1 X172.930 Y101.096 E1.95622
G1 X172.930 Y101.630 E0.01679
G1 X128.370 Y57.070 E1.97996
G1 X127.836 Y57.070 E0.01679
G1 X172.930 Y102.164 E2.00371
M73 P2 R184
G1 X172.930 Y102.699 E0.01679
G1 X127.301 Y57.070 E2.02745
G1 X126.767 Y57.070 E0.01679
G1 X172.930 Y103.233 E2.05119
G1 X172.930 Y103.768 E0.01679
G1 X126.232 Y57.070 E2.07494
G1 X125.698 Y57.070 E0.01679
G1 X172.930 Y104.302 E2.09868
G1 X172.930 Y104.836 E0.01679
G1 X125.164 Y57.070 E2.12243
G1 X124.629 Y57.070 E0.01679
G1 X172.930 Y105.371 E2.14617
G1 X172.930 Y105.905 E0.01679
G1 X124.095 Y57.070 E2.16992
G1 X123.561 Y57.070 E0.01679
G1 X172.930 Y106.439 E2.19366
G1 X172.930 Y106.974 E0.01679
G1 X123.026 Y57.070 E2.21740
G1 X122.492 Y57.070 E0.01679
G1 X172.930 Y107.508 E2.24115
G1 X172.930 Y108.043 E0.01679
G1 X121.957 Y57.070 E2.26489
M73 Q2 S185
G1 X121.423 Y57.070 E0.01679
G1 X172.930 Y108.577 E2.28864
G1 X172.930 Y109.111 E0.01679
G1 X120.889 Y57.070 E2.31238
G1 X120.354 Y57.070 E0.01679
G1 X172.930 Y109.646 E2.33612
G1 X172.930 Y110.180 E0.01679
G1 X119.820 Y57.070 E2.35987
G1 X119.286 Y57.070 E0.01679
G1 X172.930 Y110.714 E2.38361
G1 X172.930 Y111.249 E0.01679
G1 X118.751 Y57.070 E2.40736
M73 P2 R183
G1 X118.217 Y57.070 E0.01679
G1 X172.930 Y111.783 E2.43110
G1 X172.930 Y112.318 E0.01679
G1 X117.682 Y57.070 E2.45484
G1 X117.148 Y57.070 E0.01679
G1 X172.930 Y112.852 E2.47859
G1 X172.930 Y113.386 E0.01679
G1 X116.614 Y57.070 E2.50233
G1 X116.079 Y57.070 E0.01679
G1 X172.930 Y113.921 E2.52608
G1 X172.930 Y114.455 E0.01679
G1 X115.545 Y57.070 E2.54982
G1 X115.011 Y57.070 E0.01679
G1 X172.930 Y114.989 E2.57357
G1 X172.930 Y115.524 E0.01679
G1 X114.476 Y57.070 E2.59731
G1 X113.942 Y57.070 E0.01679
G1 X172.930 Y116.058 E2.62105
M73 P3 R183
M73 Q3 S184
G1 X172.930 Y116.593 E0.01679
G1 X113.407 Y57.070 E2.64480
G1 X112.873 Y57.070 E0.01679
G1 X172.930 Y117.127 E2.66854
G1 X172.930 Y117.661 E0.01679
G1 X112.339 Y57.070 E2.69229
G1 X111.804 Y57.070 E0.01679
G1 X172.930 Y118.196 E2.71603
G1 X172.930 Y118.730 E0.01679
G1 X111.270 Y57.070 E2.73977
M73 P3 R182
G1 X110.736 Y57.070 E0.01679
G1 X172.930 Y119.264 E2.76352
G1 X172.930 Y119.799 E0.01679
G1 X110.201 Y57.070 E2.78726
G1 X109.667 Y57.070 E0.01679
G1 X172.930 Y120.333 E2.81101
G1 X172.930 Y120.868 E0.01679
G1 X109.132 Y57.070 E2.83475
G1 X108.598 Y57.070 E0.01679
G1 X172.930 Y121.402 E2.85849
G1 X172.930 Y121.936 E0.01679
G1 X108.064 Y57.070 E2.88224
G1 X107.529 Y57.070 E0.01679
G1 X172.930 Y122.471 E2.90598
G1 X172.930 Y123.005 E0.01679
G1 X106.995 Y57.070 E2.92973
G1 X106.461 Y57.070 E0.01679
G1 X172.930 Y123.539 E2.95347
M73 Q3 S183
G1 X172.930 Y124.074 E0.01679
G1 X105.926 Y57.070 E2.97721
G1 X105.392 Y57.070 E0.01679
G1 X172.930 Y124.608 E3.00096
G1 X172.930 Y125.143 E0.01679
G1 X104.857 Y57.070 E3.02470
G1 X104.323 Y57.070 E0.01679
G1 X172.930 Y125.677 E3.04845
M73 P3 R181
G1 X172.930 Y126.211 E0.01679
G1 X103.789 Y57.070 E3.07219
G1 X103.254 Y57.070 E0.01679
G1 X172.930 Y126.746 E3.09594
G1 X172.930 Y127.280 E0.01679
G1 X102.720 Y57.070 E3.11968
G1 X102.186 Y57.070 E0.01679
G1 X172.930 Y127.814 E3.14342
G1 X172.930 Y128.349 E0.01679
G1 X101.651 Y57.070 E3.16717
G1 X101.117 Y57.070 E0.01679
G1 X172.930 Y128.883 E3.19091
M73 P4 R181
G1 X172.930 Y129.418 E0.01679
G1 X137.746 Y94.234 E1.56334
M73 Q4 S183
G1 X137.758 Y94.780 E0.01717
G1 X172.930 Y129.952 E1.56281
G1 X172.930 Y130.486 E0.01679
G1 X137.758 Y95.314 E1.56281
M73 Q4 S182
